X: 127
T: Krakowiak	 Op. 14
C: Fryderyk Chopin
%%abc-version 2.0
%%abcx-abcm2ps-target-version 5.9.1 (29 Sep 2008)
%%abc-creator hum2abc beta
%%abcx-conversion-date 2021/10/03 11:23:44
%%abc-edited-by Marta Lawrence
%%abc-edited-by Emilia ZiÄtek
%%abcx-initial-encoding-date 2019-03-13
%%humdrum-veritas 2801790859
%%humdrum-veritas-data 712208163
%%linebreak <none>
%%barnumbers 0
L: 1/16
M: 3/4
N: Derived from 014-1a-Sm.krn
P: KRAKOWIAK. Grand Rondo de Concert pour le Piano avec accompagnement d'Orchestre
Q: "Andantino quasi All.tto." 1/4=104
V: 1 clef=treble
V: 2 clef=bass
V: 3 clef=bass
K: F
[V:1] z12 | 
[V:2] [C12F,12]- & z12 | 
[V:3] z12 | 
[V:1] z12 | 
[V:2] [C12F,12] & z12 | 
[V:3] z12 | 
[V:1] z12 | 
[V:2] [C12A,12F,12]- & [C,12F,,12]- | 
[V:3] z12 | 
[V:1] z4z4a'2g'2 | 
[V:2] [C8A,8F,8][K:clef=treble]x2 x2 & z4z4A2G2 | 
[V:3] z12 | 
[V:1] f'2g'2a'2d''2c''2g'2 | 
[V:2] F2G2A2d2c2G2 | 
[V:3] [C12A,12F,12]- | 
[V:1] a'2d'2c'4a'2g'2 | 
[V:2] A2D2C4A2G2 | 
[V:3] [C12A,12F,12] | 
[V:1] f'2g'2a'2d''2c''2g'2 | 
[V:2] F2G2A2d2c2G2 | 
[V:3] [C12A,12F,12]- | 
[V:1] a'2d'2c'4a'2f'2 | 
[V:2] A2D2C4A2F2 | 
[V:3] [C12A,12F,12] | 
[V:1] g'12- | 
[V:2] G12- | 
[V:3] [C12G,12C,12] | 
[V:1] g'8z4 & G12- | 
[V:2] G8[K:clef=bass]z4 & x8G,,4 | 
[V:3] z12 | 
[V:1] z12 & G12 | 
[V:2] [G,12C,12] & C,12 | 
[V:3] z12 | 
[V:1] G12 & z4z4a'2g'2 | 
[V:2] [G,12C,12][K:clef=treble] & z4z4A2G2 | 
[V:3] z12 | 
[V:1] f'2g'2a'2d''2c''2g'2 | 
[V:2] F2G2A2d2c2G2 | 
[V:3] [C12A,12F,12]- | 
[V:1] a'2d'2c'4a'2g'2 | 
[V:2] A2D2C4A2G2 | 
[V:3] [C12A,12F,12] | 
[V:1] f'2g'2a'2d''2c''2g'2 | 
[V:2] F2G2A2d2c2G2 | 
[V:3] [C12A,12F,12]- | 
[V:1] a'2d'2c'4a'2f'2 | 
[V:2] A2D2C4A2F2 | 
[V:3] [C12A,12F,12] | 
[V:1] g'12- | 
[V:2] G12- | 
[V:3] [E12G,12C,12] | 
[V:1] x8z4 & g'8[D4=B,4G,4] | 
[V:2] G8[K:clef=bass]z4 & x8G,,4 | 
[V:3] z12 | 
[V:1] [G12-E12C12-G,12-] | 
[V:2] [C,12C,,12]- | 
[V:3] z12 | 
[V:1] z4z4g'2a'2 & [G12_E12C12G,12] | 
[V:2] z4z4[K:clef=treble]G2A2 & [C,12C,,12] | 
[V:3] z12 | 
[V:1] b'2a'2g'4a'4 | 
[V:2] B2A2G4A4 | 
[V:3] [D12B,12G,12] | 
[V:1] g'2^f'2 {/f'}d'4!accent!g'4 | 
[V:2] G2^F2 {/F}D4G4 | 
[V:3] [D8C8A,8G,8][D4B,4G,4] | 
[V:1] {/g'} b'2za' g'2a'2g'2a'2 | 
[V:2] {/G} B2zA G2A2G2A2 | 
[V:3] [D12B,12G,12] | 
[V:1] g'2f'2d'8 | 
[V:2] G2F2D8 | 
[V:3] [F8A,8D,8][F4D4A,4] | 
[V:1] d'2e'2f'4g'4 | 
[V:2] D2E2F4G4 | 
[V:3] [F12D12B,12] | 
[V:1] a'2d''2c''4f'2g'2 | 
[V:2] A2d2c4F2G2 | 
[V:3] [F12C12A,12F,12]- | 
[V:1] a'2d'2c'4a'2f'2 | 
[V:2] A2D2C4A2F2 | 
[V:3] [F8C8A,8F,8][F4C4A,4] | 
[V:1] g'8z4 & x8A2F2 | 
[V:2] x8[K:clef=bass][C4A,4C,4] & G8z4 | 
[V:3] [E8G,8C,8]z4 | 
[V:1] z4x4g'2a'2 & [G8E8C8]x4 | 
[V:2] [G,8C,8][K:clef=treble]x4 & z4z4G2A2 | 
[V:3] z4z4[_E4C4] | 
[V:1] b'2a'2g'4a'4 | 
[V:2] B2A2G4A4 | 
[V:3] [D12B,12G,12] | 
[V:1] g'2^f'2 {/f'}d'4!accent!g'4 | 
[V:2] G2^F2 {/F}D4G4 | 
[V:3] [D8C8A,8G,8][D4B,4G,4] | 
[V:1] b'2za' g'2a'2g'2a'2 | 
[V:2] B2zA G2A2G2A2 | 
[V:3] [D12B,12G,12] | 
[V:1] g'2zf' {/f'}!accent!d'8 | 
[V:2] G2zF {/F}D8 | 
[V:3] [F12A,12D,12] | 
[V:1] d'2e'4<f'4g'2 | 
[V:2] D2E4<F4G2 | 
[V:3] F8x4 & [B,4D,4]=B,4[E4C4G,4C,4] | 
[V:1] a'2d''2c''4f'2g'2 | 
[V:2] A2d2c4F2A2 | 
[V:3] [F4C4A,4F,4][K:clef=treble]A2d2c4 | 
[V:1] a'2d'2c'4a'2g'2 | 
[V:2] A2D2C4A2G2 | 
[V:3] F2G2 A2D2C4 | 
[V:1] f'8z4 & x8[G4E4C4B,4] | 
[V:2] F8[K:clef=bass]z4 & x8E,,4 | 
[V:3] A8z4 | 
[V:1] z12 & [F12C12A,12]- | 
[V:2] F,,12- | 
[V:3] z12 | 
[V:1] z12 & [F12C12A,12] ||  
[V:2] F,,12[K:clef=treble] ||  
[V:3] z12 ||  
[V:1] =b'_a'g'a' g'f'_e'_d'!wedge!c'4 [I:setbarnb 41]| 
[V:2] =b_aga gf_e_d!wedge!c4 | 
[V:3] z12 | 
[V:1] =b_aga gf_e_d!wedge!c4 | 
[V:2] =B_AGA GF_E_DC4[K:clef=bass] | 
[V:3] z12 | 
[V:1] _B_AGA GF_E_DC4 | 
[V:2] =B,_A,G,A, G,F,_E,_D,C,4 | 
[V:3] z12 | 
[V:1] =B,_A,G,A, _B,A,G,F, G,F,_E,_D, | 
[V:2] =B,,_A,,G,,A,, _B,,A,,G,,F,, G,,F,,_E,,_D,, | 
[V:3] z12 | 
[V:1] z12 | 
[V:2] !fermata!C,12 & !fermata!C,,12 | 
[V:3] z12 | 
[V:1] C,F,E,_A, G,_DCF E_AG_d | 
[V:2] C,,_A,,G,,F,, E,,F,E,_D, C,CB,F, | 
[V:3] z12 | 
[V:1] cfe_a g_d'c'f' e'_a'g'_d'' | 
[V:2] E,[K:clef=treble]_AGF Efe_d cc'bf | 
[V:3] z12 | 
[V:1] c''_a'g'_d'' c''a'g'd'' c''a'g'd'' | 
[V:2] ec'bf ec'bf ec'bf | 
[V:3] z12 | 
[V:1] .c''2 z2!accent!e''8 | 
[V:2] .e2 z2!accent!e'8 | 
[V:3] z12 | 
[V:1] c''g'd'e' c'gde cGDE | 
[V:2] c'gde cGDE[K:clef=bass] CG,D,E, | 
[V:3] z12 | 
[V:1] CG,D,E,!accent!C,8- | 
[V:2] C,G,,D,,E,,C,,8- | 
[V:3] z12 | 
[V:1] C,4z4z4 | 
[V:2] C,,4z4z4 | 
[V:3] z12 | 
[V:1] (5:4:15BEGCE BEGCE BEGCE | 
[V:2] (5:4:15G,CB,G,C, G,CB,G,C, G,CB,G,C, | 
[V:3] z12 | 
[V:1] (5:4:5=BF_ADFB4z4 | 
[V:2] (5:4:5_A,D=B,A,D,A,4z4 | 
[V:3] z12 | 
[V:1] (5:4:5c^F=A_EFc4z4 | 
[V:2] (5:4:5A,_ECA,_E,A,4z4 | 
[V:3] z12 | 
[V:1] (5:4:15^cGBEG eBcGB gceBc | 
[V:2] (5:4:15B,=E^CB,E,[K:clef=treble] ^CGEB,G, EBGEG, | 
[V:3] z12 | 
[V:1] (5:4:15beg_d=e begde begde | 
[V:2] (5:4:15G_dBG_D GdBGD GdBGD | 
[V:3] z12 | 
[V:1] (5:4:15begce begce begce | 
[V:2] (5:4:15GcBGC GcBGC GcBGC | 
[V:3] z12 | 
[V:1] (5:4:15begce begce begce | 
[V:2] (5:4:15GcBGC GcBGC GcBGC | 
[V:3] z12 | 
[V:1] b2 z2z4z4 ||  
[V:2] G2 z2z4z4[K:clef=bass] ||  
[V:3] z12 ||  
[V:1] [M:2/4][A2C2][A4C4][A2C2]- [I:setbarnb 61]| 
[V:2] [M:2/4]F,4F,4 & F,,8 | 
[V:3] [M:2/4]z8 | 
[V:1] [A2C2][A4C4][A2C2]- | 
[V:2] F,4F,4 & F,,8 | 
[V:3] z8 | 
[V:1] [A2C2][A4C4][A2C2]- | 
[V:2] F,4F,4 & F,,8 | 
[V:3] z8 | 
[V:1] [A2C2][A4C4][A2C2] | 
[V:2] F,4F,4[K:clef=treble] & F,,8 | 
[V:3] z8 | 
[V:1] .f2ab c'2!accent!f'd' | 
[V:2] .F,2[A2C2] .F,2[A2C2] | 
[V:3] z8 | 
[V:1] c'2!accent!f'd' c'2!accent!f'd' | 
[V:2] F,2[A2C2] .F,2[A2C2] | 
[V:3] z8 | 
[V:1] c'2d'c' .b2g2 | 
[V:2] .F,2[B2C2] .F,2[B2C2] | 
[V:3] z8 | 
[V:1] .f2!accent!a6 | 
[V:2] .F,2[A2C2] .F,2[A2C2][K:clef=bass] | 
[V:3] z8 | 
[V:1] g2ag f2.d2 | 
[V:2] G,,2G,2[F2=B,2]G,2 | 
[V:3] z8 | 
[V:1] .c2!accent!G4ce | 
[V:2] .C,2G,2[E2C2]G,2 | 
[V:3] z8 | 
[V:1] g2ag f2.d2 | 
[V:2] .G,,2G,2[F2=B,2]G,2 | 
[V:3] z8 | 
[V:1] c2!accent!c'4ga | 
[V:2] C,2G,2[E2_B,2]C2[K:clef=treble] | 
[V:3] z8 | 
[V:1] f2ab c'2!accent!f'd' | 
[V:2] .F,2[A2C2] .F,2[A2C2] | 
[V:3] z8 | 
[V:1] c'2f'd' c'2!accent!f'd' | 
[V:2] .F,2[A2C2] .F,2[A2C2] | 
[V:3] z8 | 
[V:1] c'2!accent!d'c' b2.g2 | 
[V:2] .F,2[B2C2] .F,2[B2C2] | 
[V:3] z8 | 
[V:1] .f2 {/fg}a6 | 
[V:2] .F,2[A2C2] .F,2[A2C2][K:clef=bass] | 
[V:3] z8 | 
[V:1] !mordent!g2^fg =bz/a/=fd | 
[V:2] .G,,2G,2[F2=B,2]G,2 | 
[V:3] z8 | 
[V:1] .c2!accent!G4ce | 
[V:2] .C,2G,2[E2C2]G,2 | 
[V:3] z8 | 
[V:1] g2 !mordent!g2.f2.d2 | 
[V:2] .G,,2G,2[F2=B,2]G,2 | 
[V:3] z8 | 
[V:1] c2!accent!c'4ab | 
[V:2] .C,2[E2C2] .D,2[F2C2A,2] | 
[V:3] z8 | 
[V:1] g2bc' d'2g'_e' | 
[V:2] .G,,2D2[K:clef=treble] .G,2[B2D2] | 
[V:3] z8 | 
[V:1] .d'2g'_e' d'2g'e' | 
[V:2] .G,2[B2D2] .G,2[B2D2] | 
[V:3] z8 | 
[V:1] d'2_e'd' .c'2.a2 | 
[V:2] .G,2[c2D2] .G,2[c2D2] | 
[V:3] z8 | 
[V:1] g2b6 | 
[V:2] .G,2[B2D2] .G,2[B2D2] | 
[V:3] z8 | 
[V:1] .g2 {/ga} .b2.g2 {/ga} .b2 | 
[V:2] .G,2[B2D2] .F,2[B2_D2] | 
[V:3] z8 | 
[V:1] g2 {/ga}!accent!b4ag | 
[V:2] .=E,2C2c2B2 & x2C6 | 
[V:3] z8 | 
[V:1] .f2 {/fg}!accent!a4gf | 
[V:2] F,2C2A2[F2A,2][K:clef=bass] & x2C6 | 
[V:3] z8 | 
[V:1] .g2 {/c}[c'6c6] | 
[V:2] !arpeggio![E6G,6C,6]!fermata!z2[K:clef=treble] | 
[V:3] z8 | 
[V:1] f2ab .c'2(3=bf'd' | 
[V:2] F,2[A2C2] F,2[A2C2] | 
[V:3] z8 | 
[V:1] .c'2(3=bf'd' .c'2(3a'f'd' | 
[V:2] F,2[A2C2] F,2[A2C2] | 
[V:3] z8 | 
[V:1] .c'2 (3e'd'_b .g2.c2 | 
[V:2] F,2[_B2C2] F,2[B2C2] | 
[V:3] z8 | 
[V:1] .f2!accent!a6 | 
[V:2] F,2[A2C2] F,2[A2C2][K:clef=bass] | 
[V:3] z8 | 
[V:1] !trill!g2^fg {/g} .=bz/a/(3=fed | 
[V:2] .G,,2G,2[F2D2]G,2 | 
[V:3] z8 | 
[V:1] .c2!accent!G4ce | 
[V:2] C,2G,2[E2C2]G,2 | 
[V:3] z8 | 
[V:1] g2(3aeg .f2.d2 | 
[V:2] G,,2G,2[F2=B,2]G,2 | 
[V:3] z8 | 
[V:1] .c2!accent!c'4ga | 
[V:2] C,2G,2[E2_B,2]C2[K:clef=treble] | 
[V:3] z8 | 
[V:1] .f2ab =bc'f'd' | 
[V:2] F,2[A2C2] F,2[A2C2] | 
[V:3] z8 | 
[V:1] =bc'f'd' bc'f'd' | 
[V:2] F,2[A2C2] F,2[A2C2] | 
[V:3] z8 | 
[V:1] =bc'd'c' _bcag | 
[V:2] F,2[B2C2] F,2[B2C2] | 
[V:3] z8 | 
[V:1] fcfg acab | 
[V:2] E,2[A2C2] F,2[A2C2] | 
[V:3] z8 | 
[V:1] c'ce'd' bcag | 
[V:2] F,2[B2C2] F,2[B2C2][K:clef=bass] | 
[V:3] z8 | 
[V:1] fcfa bfb[=b^g] | 
[V:2] !arpeggio![A2C2F,2] [_E,2_E,,2][D,2D,,2][_D,2_D,,2] | 
[V:3] z8 | 
[V:1] [d'a][c'f][d'a][c'c] [d'b][c'e][d'b][c'g] | 
[V:2] z2 E,F, G,2CB, & {/C,,}C,8- | 
[V:3] z8 | 
[V:1] [d'a][c'f][d'a][c'c] [d'b][c'c][d'b][c'g] | 
[V:2] A,2E,F, G,2CB, & C,8- | 
[V:3] z8 | 
[V:1] [d'a][c'f][d'a][c'c] [d'b][c'e][d'b][c'g] | 
[V:2] A,2E,F, G,2CB, & C,8 | 
[V:3] z8 | 
[V:1] .[a2f2] .!arpeggio![f'2d'2a2f2] .!arpeggio![f'2d'2g2d2] .!arpeggio![e'2c'2g2e2] | 
[V:2] A,2 x2x4 & F,2 .!arpeggio![D2A,2F,2D,2] .!arpeggio![B,2G,2D,2B,,2] .!arpeggio![C2B,2G,2C,2] | 
[V:3] z8 | 
[V:1] !arpeggio![f'2c'2a2f2] [aA][gG] [f2F2][g2G2] | 
[V:2] !arpeggio![F,2C,2A,,2F,,2] [A,A,,][G,G,,] [F,2F,,2][G,2G,,2] | 
[V:3] z8 | 
[V:1] !accent![c4C4].[c2C2] [fF][gG] | 
[V:2] [C,4C,,4][C,2C,,2] [F,F,,][G,G,,] | 
[V:3] z8 | 
[V:1] [a2A2][gG][aA] .[f2F2].[g2G2] | 
[V:2] [A,2A,,2][G,G,,][A,A,,] .[F,2F,,2].[G,2G,,2] | 
[V:3] z8 | 
[V:1] [c4C4][c'2^f2c2][c'2f2c2] | 
[V:2] [C,4C,,4][D,2D,,2][D,2D,,2] | 
[V:3] z8 | 
[V:1] b2bax4 & [g2B2]!accent![^f2c2][g2d2][a2_e2A2] | 
[V:2] [G,2G,,2][A,2A,,2][B,2B,,2][C2C,2] | 
[V:3] z8 | 
[V:1] !accent![d4A4^F4].d2 ga | 
[V:2] [D4D,4].[C2C,2] [B,B,,][A,A,,] | 
[V:3] z8 | 
[V:1] b2abx4 & [g2d2][^f2c2][g2d2][a2_e2A2] | 
[V:2] [G,2G,,2][A,2A,,2][B,2B,,2][C2C,2] | 
[V:3] z8 | 
[V:1] d8- & [A4^F4]z4 | 
[V:2] D8 & D,4z4 | 
[V:3] z8 | 
[V:1] [d2B2].[e2B2].[f2B2].[g2B2] | 
[V:2] B,,2[F2D2B,2][F2D2B,2][F2D2B,2] | 
[V:3] z8 | 
[V:1] {/fg}.[a4A4]!accent![a4A4] | 
[V:2] [F4C4F,4][F4C4F,4] | 
[V:3] z8 | 
[V:1] [d2B2].[e2B2].[f2B2].[g2B2] | 
[V:2] [F2D2B,2][F2D2B,2][F2D2B,2][F2D2B,2] | 
[V:3] z8 | 
[V:1] {/fg} [a2A2] z2 {/d'}!accent![c'4g4c4] | 
[V:2] [F2C2F,2] z2[=E,4=D,,4] | 
[V:3] z8 | 
[V:1] !accent![c'4a4c4].[c'2g2c2].[f'2a2f2] | 
[V:2] [F,4F,,4][E,2E,,2][D,2D,,2] | 
[V:3] z8 | 
[V:1] !accent![e'4c'4g4].[f2d2].[c'2f2c2] | 
[V:2] [C,4C,,4][B,,2B,,,2][A,,2A,,,2] | 
[V:3] z8 | 
[V:1] !accent![b2g2d2][afc][gB] [f2A2][g2e2c2G2] | 
[V:2] [G,,2G,,,2][A,,A,,,][B,,B,,,] [C,2C,,2][C,2C,,2] | 
[V:3] z8 | 
[V:1] !accent![a4f4c4A4]!accent![g4e4c4G4] | 
[V:2] [F,2F,,2][A,2A,,2][C2C,2][C,2C,,2] | 
[V:3] z8 | 
[V:1] {/d'}[c'4a4c4].[c'2g2c2].[f'2a2f2] | 
[V:2] [F,2F,,2][F2F,2][E2E,2][D2D,2] | 
[V:3] z8 | 
[V:1] [e'4c'4g4].[f2d2].[c'2f2c2] | 
[V:2] [C2C,2] [C,2C,,2][B,,2B,,,2][A,,2A,,,2] | 
[V:3] z8 | 
[V:1] {/c'} [b2g2d2][a2f2c2][g2d2][a2e2B2] | 
[V:2] [G,,2G,,,2][A,,2A,,,2][B,,2B,,,2][C,2C,,2] | 
[V:3] z8 | 
[V:1] [f4A4].[f2A2] A,B, | 
[V:2] [F,4F,,4].[F,2F,,2] A,,B,, | 
[V:3] z8 | 
[V:1] C2G,A, C2FD | 
[V:2] C,2A,,B,, C,2F,D, | 
[V:3] z8 | 
[V:1] C2FD C2 .[g2e2c2G2] | 
[V:2] C,2F,D, C,2 [C,2C,,2] | 
[V:3] z8 | 
[V:1] .[a2f2c2A2] A,B, C2FD | 
[V:2] [F,,2F,,,2] A,,B,, C,2F,D, | 
[V:3] z8 | 
[V:1] C2FD C2[B2G2C2] | 
[V:2] C,2F,D, C,2 [C,2C,,2] | 
[V:3] z8 | 
[V:1] [^G4F4D4]x4 & D,F,D^G, D^Fd^G | 
[V:2] !accent![=B,,8=B,,,8]- | 
[V:3] z8 | 
[V:1] dfd'^g d'f'd''a' | 
[V:2] [=B,,4=B,,,4][A,,4A,,,4] | 
[V:3] z8 | 
[V:1] =b'd''e'd' =bd'ed | 
[V:2] [^G,,8^G,,,8]- | 
[V:3] z8 | 
[V:1] =BdED =B,DE,D, | 
[V:2] [G,,8G,,,8] | 
[V:3] z8 | 
[V:1] C,E,EA, CEeA | 
[V:2] [A,,8A,,,8-] | 
[V:3] z8 | 
[V:1] cee'a c'_e'_e''a' | 
[V:2] [A,,4A,,,4][G,,4G,,,4] | 
[V:3] z8 | 
[V:1] c''_e''a'_e' c''e'a_e | 
[V:2] [^F,,8^F,,,8]- | 
[V:3] z8 | 
[V:1] cdAD CDA,F, | 
[V:2] [F,,8F,,,8] | 
[V:3] z8 | 
[V:1] B,,D,DG, B,DdG | 
[V:2] [G,,8G,,,8] | 
[V:3] z8 | 
[V:1] Bdd'g bd'd''g' | 
[V:2] [G,,4G,,,4][B,,3B,,,3][C,C,,] | 
[V:3] z8 | 
[V:1] b'd''f'c' bd'fd | 
[V:2] [D,8D,,8] | 
[V:3] z8 | 
[V:1] bc'gc BcGC | 
[V:2] [=E,8=E,,8] | 
[V:3] z8 | 
[V:1] A,CcF Acc'f | 
[V:2] [F,4F,,4]z4 | 
[V:3] z8 | 
[V:1] _ac'c''f' _a'c''fc' | 
[V:2] [F,,4F,,,4][_A,,3_A,,,3][B,,B,,,] | 
[V:3] z8 | 
[V:1] _ac'_ec _Ac_EC | 
[V:2] [C,8C,,8] | 
[V:3] z8 | 
[V:1] _ABFB, _A,B,F,B,, | 
[V:2] D,4z4 & D,,8 | 
[V:3] z8 | 
[V:1] G,,B,,B,_E, G,B,BB, | 
[V:2] _E,,8- | 
[V:3] z8 | 
[V:1] G,=B,=B_E GB=bB | 
[V:2] [_E,8-E,,8] | 
[V:3] z8 | 
[V:1] Gcc'_e gc'c''c' | 
[V:2] [_E8-E,8][K:clef=treble] | 
[V:3] z8 | 
[V:1] x4x2 c'2 & !accent!^c'b'g'a !accent!bg'c'g | 
[V:2] !accent![_e8E8] | 
[V:3] z8 | 
[V:1] d'2d'4x2 & ^f2 c'b acdA | 
[V:2] [d2D2] z2z4[K:clef=bass] | 
[V:3] z8 | 
[V:1] x2 !accent!d'2a2 x2 & .c2 c'b ac'd'a' | 
[V:2] .^F,2[K:clef=treble] [A2D2C2][A2D2C2][A2D2C2] | 
[V:3] z8 | 
[V:1] x2d'4x x & .[g'2b2] !accent!bg dBGd | 
[V:2] G,2[G2D2B,2][G2D2B,2][D2B,2][K:clef=bass] | 
[V:3] z8 | 
[V:1] x2!accent!^c'4c'2 & .[^c2B2] !accent!ba gbc'g' | 
[V:2] _E,2[K:clef=treble] [G2^C2B,2][G2C2B,2][G2C2B,2][K:clef=bass] | 
[V:3] z8 | 
[V:1] .[^f'2d'2]d'4x2 & x2 .!accent!c'.a .^f.=f.e._e | 
[V:2] .D,2[K:clef=treble] [^F2D2A,2][F2D2A,2][F2D2A,2][K:clef=bass] | 
[V:3] z8 | 
[V:1] x2 d'2 a[d'c']a[a'c'] & [d'2d2] !accent!c'bx4 | 
[V:2] .^F,2[K:clef=treble] [A2D2C2][A2D2C2][A2D2C2] | 
[V:3] z8 | 
[V:1] [g'2b2] !accent!b.g .f.e._e.d & x2d'4x2 | 
[V:2] .G,2[G2D2B,2][G2D2B,2][G2D2][K:clef=bass] | 
[V:3] z8 | 
[V:1] x2 !accent!c'2x4 & .=c2 ba g[^c'b]g[g'c'] | 
[V:2] ._E,2[G2^C2B,2][G2C2B,2] _E,,2 | 
[V:3] z8 | 
[V:1] .[^f'2d'2] !accent![d'a]^f dADA | 
[V:2] D,,2 [^F2D2A,2^F,2]z4 | 
[V:3] z8 | 
[V:1] .[B2G2] !accent![d'b]g dBDB | 
[V:2] G,,2 [B,2D,2][B,2D,2].G,,2 | 
[V:3] z8 | 
[V:1] .[A2^F2] !accent![d'a]^f dADA | 
[V:2] .D,,2 A,,D,^F,A,C2 | 
[V:3] z8 | 
[V:1] .[B2G2] !accent![d'b]g dBDB | 
[V:2] G,,2[B,2D,2][B,2D,2][B,2D,2] | 
[V:3] z8 | 
[V:1] .[=B2G2] !accent![f'd']=b gdGd | 
[V:2] G,,2[K:clef=treble] [=B2G2D2=B,2]z4[K:clef=bass] | 
[V:3] z8 | 
[V:1] .[_e2c2] !accent![g'_e']c' g_eGe | 
[V:2] .C,2 [_E2G,2][E2G,2].C,2 | 
[V:3] z8 | 
[V:1] .[d2=B2] !accent![g'd']=b gdGd | 
[V:2] .G,,2 D,G,=B,DF2 | 
[V:3] z8 | 
[V:1] .[_e2c2] !accent!_e'c' geGe | 
[V:2] .C,,2 C,_E,G,C_E2 | 
[V:3] z8 | 
[V:1] .[d2B2] !accent![g'd']b gdGd | 
[V:2] .D,,2 B,,D,G,B,D2 | 
[V:3] z8 | 
[V:1] .[^c2B2] !accent![g'^c']b gcGc | 
[V:2] ._E,2.[G2^C2B,2] .=E,2.[C2B,2] | 
[V:3] z8 | 
[V:1] .[=c2A2] !accent![a'c']a dc[ad]c | 
[V:2] [D2=C2A,2^F,2] z2z4 | 
[V:3] z8 | 
[V:1] AC[AD]C A,C,[A,D,]C, | 
[V:2] z2 D,,,2E,,,2^F,,,2 | 
[V:3] z8 | 
[V:1] [B,B,,]D,^C,D, E,B,D,B, & x4E,2D,2 | 
[V:2] [G,,2G,,,2]!accent![B,,4G,,4][B,,2G,,2] | 
[V:3] z8 | 
[V:1] ^C,A,EG, ^F,DA=C & x A,2G, x D2=C | 
[V:2] [A,,2A,,,2][^C,2A,,2] [D,2D,,2][A,2^F,2] | 
[V:3] z8 | 
[V:1] B,D_EB ^CADA & x2 _E2^C2D2 | 
[V:2] x2 B,2A,4 & .[G,2G,,2]!accent!G,4^F,2 | 
[V:3] z8 | 
[V:1] =B,_A=CG DG2^F & =B,2=C2 D2C2 | 
[V:2] x4_B,2A,2 & [_A,2=F,2][G,2_E,2]D,4 | 
[V:3] z8 | 
[V:1] [GB,]!mordent!D^CD _EBDB & x4_E2D2 | 
[V:2] [G,2G,,2]!accent![B,4G,4][B,2G,2] | 
[V:3] z8 | 
[V:1] ^CAeG ^Fda=c & x A2G x d2=c | 
[V:2] .[A,2A,,2].[^C2A,2] .[D2D,2][^F2D2] | 
[V:3] z8 | 
[V:1] Bf!trill!_ed ^ceda | 
[V:2] x2[K:clef=treble] B2A4 & .[G,2G,,2]G4^F2 | 
[V:3] z8 | 
[V:1] =Bdcg _Bgca & =B2c2 _B2c2 | 
[V:2] _A2G4^F2 & =F2_E2D4 | 
[V:3] z8 | 
[V:1] .[b2B2] dg bd'_e'c'' | 
[V:2] .[G2G,2] z2 z2 .[g2_e2c2G2] | 
[V:3] z8 | 
[V:1] b'g'd'b gd_ec' | 
[V:2] !accent![g4d4B4G4]z2 .[G2_E2C2G,2] | 
[V:3] z8 | 
[V:1] bgdd BGDD | 
[V:2] [G2D2B,2G,2]>D2[K:clef=bass] B,G,D,D, | 
[V:3] z8 | 
[V:1] B,G,D,D, G,,A,,B,,G,, | 
[V:2] B,,G,,D,,D,, G,,,C,,B,,,G,,, | 
[V:3] z8 | 
[V:1] .D,2 A,D FABg | 
[V:2] D,,2 z2 z2 .[D2B,2G,2D,2] | 
[V:3] z8 | 
[V:1] fdAd fabg' | 
[V:2] !accent![D4A,4F,4D,4]z2[K:clef=treble] [B2G2D2] | 
[V:3] z8 | 
[V:1] f'd'aa fdAA | 
[V:2] [d2A2F2D2]>A2 FDA,A,[K:clef=bass] | 
[V:3] z8 | 
[V:1] !accent!FDA,A, !accent!D,E,F,D, | 
[V:2] F,D,A,,A,, D,,E,,F,,D,, | 
[V:3] z8 | 
[V:1] z2 E,A, CEFd | 
[V:2] .[A,,2A,,,2] z2 z2 .[A,2F,2D,2A,,2] | 
[V:3] z8 | 
[V:1] cAEA cefd' | 
[V:2] !accent![A,4E,4C,4A,,4]z2[K:clef=treble] .[A2F2D2A,2] | 
[V:3] z8 | 
[V:1] c'aee cAEE | 
[V:2] [A2E2C2A,2]>E2[K:clef=bass] CA,E,E, | 
[V:3] z8 | 
[V:1] CA,E,E, !accent!A,,=B,,C,A,, | 
[V:2] C,A,,E,,E,, A,,,=B,,,C,,A,,, | 
[V:3] z8 | 
[V:1] z2 _EA f_eac' | 
[V:2] [F,,8F,,,8] | 
[V:3] z8 | 
[V:1] d'bdf BDFB, | 
[V:2] [B,,4B,,,4][D,3D,,3][E,E,,] | 
[V:3] z8 | 
[V:1] _E,A,F_E Af_ea | 
[V:2] [F,8F,,8] | 
[V:3] z8 | 
[V:1] f'bdf BDFB, | 
[V:2] [B,,4B,,,4][_A,,4_A,,,4] | 
[V:3] z8 | 
[V:1] F,=B,GF =Bgf=b | 
[V:2] [G,,8G,,,8] | 
[V:3] z8 | 
[V:1] g'c'_eg c_EGC | 
[V:2] [C,4C,,4][_E,3_E,,3][F,F,,] | 
[V:3] z8 | 
[V:1] F,=B,GF =Bgf=b | 
[V:2] [G,8G,,8] | 
[V:3] z8 | 
[V:1] g'c'_eg c_EGC | 
[V:2] [C,4C,,4][_B,,4_B,,,4] | 
[V:3] z8 | 
[V:1] G,^CAG ^cag^c' | 
[V:2] [A,,8A,,,8] | 
[V:3] z8 | 
[V:1] a'f'fa dFAD | 
[V:2] [D,4D,,4][F,3F,,3][G,G,,] | 
[V:3] z8 | 
[V:1] G,^CAG ^cag^c' | 
[V:2] [A,8A,,8] | 
[V:3] z8 | 
[V:1] a'd'fa dFAD | 
[V:2] [D,4D,,4]z4 | 
[V:3] z8 | 
[V:1] G,DGD GdGd | 
[V:2] !accent![B,8G,8D,8B,,8] | 
[V:3] z8 | 
[V:1] gdgd' gd'g'd' | 
[V:2] [=B,8G,8D,8=B,,8] | 
[V:3] z8 | 
[V:1] ^g'd'^gd' gdgd | 
[V:2] !accent![=B,8^G,8E,8=B,,8] | 
[V:3] z8 | 
[V:1] ^GdFD GD^G,D | 
[V:2] !accent![B,8E,8B,,8] | 
[V:3] z8 | 
[V:1] .[A2^C2] e''g' ^c'^c''e'b | 
[V:2] x4[K:clef=treble]G4- & .[A,2E,2A,,2] z2[E4B,4]- | 
[V:3] z8 | 
[V:1] b'^c'gg' bee'd | 
[V:2] G4^G4 & [E8B,8] | 
[V:3] z8 | 
[V:1] .^c2 e''g' ^c'!accent!^c''e'b | 
[V:2] A4=G4- & [E4A,4][E4B,4] | 
[V:3] z8 | 
[V:1] b'^c'gg' bee'd | 
[V:2] G4^G4 & [E8B,8] | 
[V:3] z8 | 
[V:1] .^C2 !accent!^C,D, E,A,,A,E, | 
[V:2] .[A2E2A,2][K:clef=bass] ^C,,D,, E,,A,,,A,,E,, | 
[V:3] z8 | 
[V:1] F,D,B,A, ^G,E,E=B, | 
[V:2] F,,D,,B,,A,, ^G,,E,,E,=B,, | 
[V:3] z8 | 
[V:1] ^CE,A,=B, ^CA,CE | 
[V:2] ^C,A,,C,D, E,A,,A,G, | 
[V:3] z8 | 
[V:1] DA,DF E=B,^G=B | 
[V:2] F,D,_B,A, ^G,E,ED[K:clef=treble] | 
[V:3] z8 | 
[V:1] AEA=B ^cAce | 
[V:2] ^CA,CD EA,A=G | 
[V:3] z8 | 
[V:1] dAdf e=B^g=b | 
[V:2] FD_BA ^GEed | 
[V:3] z8 | 
[V:1] aea=b ^c'ac'e' | 
[V:2] ^cAcd eAa=g | 
[V:3] z8 | 
[V:1] d'ad'f' e'=b^g'=b' | 
[V:2] fd_ba ^gee'd' | 
[V:3] z8 | 
[V:1] a'e'=g'd' f'^c'd'_b | 
[V:2] ^c'=c'=b_b a=gfd | 
[V:3] z8 | 
[V:1] aegd f^cdB | 
[V:2] ^c=c=B_B AGFD[K:clef=bass] | 
[V:3] z8 | 
[V:1] AEGD F^CDB, | 
[V:2] ^C=C=B,_B, A,G,F,D, | 
[V:3] z8 | 
[V:1] A,E,G,D, F,^C,D,B,, | 
[V:2] ^C,=C,=B,,_B,, A,,G,,F,,D,, | 
[V:3] z8 | 
[V:1] A,2^CDE4- | 
[V:2] x2 ^C,D,E,4- & [A,,8A,,,8]- | 
[V:3] z8 | 
[V:1] E2A^FE4 | 
[V:2] E,2A,^F,E,4 & [A,,8A,,,8] | 
[V:3] z8 | 
[V:1] z4!accent!D,E,E^G, | 
[V:2] !accent![_B,,8_B,,,8]- | 
[V:3] z8 | 
[V:1] DEe^G dee'[d'^g] | 
[V:2] [B,,8B,,,8] | 
[V:3] z8 | 
[V:1] .[^c'4a4]z4 & A,2^CD E2A^F | 
[V:2] x2 =C,D, E,2A,^F, & [A,,8A,,,8]- | 
[V:3] z8 | 
[V:1] z8 & E2A^FE4 | 
[V:2] x4x4 & [A,,8A,,,8] | 
[V:3] z8 | 
[V:1] D,E,E^G, DEe^G | 
[V:2] !accent![_B,,8_B,,,8]- | 
[V:3] z8 | 
[V:1] dee'^g d'e'e''[d''^g'] | 
[V:2] [B,,8B,,,8] | 
[V:3] z8 | 
[V:1] A,2^CDE4 & [^c''2a'2] z2 z c''e'a | 
[V:2] [A,,4A,,,4][K:clef=treble]z ^c'eA | 
[V:3] z8 | 
[V:1] ^c'eA^c EA,^CE, | 
[V:2] ^cEA,^C[K:clef=bass] E,A,,^C,E,, | 
[V:3] z8 | 
[V:1] A,2^CDE4 & x2 x x z2 ^c'e | 
[V:2] [A,,4A,,,4][K:clef=treble]z2 ^cE | 
[V:3] z8 | 
[V:1] A2 ^cE A,2 ^CE, | 
[V:2] F,2[K:clef=bass] ^CE, A,,2 ^C,E,, | 
[V:3] z8 | 
[V:1] A,,2 z2 z eAE | 
[V:2] A,,,2 z2 z EA,E, | 
[V:3] z8 | 
[V:1] A,2 z2 z EA,E, | 
[V:2] A,,2 z2 z E,A,,E,, | 
[V:3] z8 | 
[V:1] x4[A4F4] | 
[V:2] x4A,4 & A,,8- | 
[V:3] z8 | 
[V:1] [G4E4][E4^C4] | 
[V:2] A,8[K:clef=treble] & [A,,,8A,,8] | 
[V:3] z8 | 
[V:1] f'4.e'2.d'2 | 
[V:2] f4e2d2 | 
[V:3] [A4F4D4][A2F2D2][A2F2D2] | 
[V:1] {/d'} .c'2.=b2.c'2.a2 | 
[V:2] c2=B2c2A2 | 
[V:3] F,2[A2F2C2][A2F2C2][A2F2C2] | 
[V:1] ._b2.d'2.c'2.b2 | 
[V:2] _B2d2c2B2 | 
[V:3] [F2D2B,2][F2D2B,2][F2D2B,2][F2D2B,2][K:clef=bass] | 
[V:1] .a4.f4 | 
[V:2] A4F4 | 
[V:3] F,4[A4F4C4A,4] | 
[V:1] d'4.c'2.b2 | 
[V:2] d4c2B2 | 
[V:3] [F4D4B,4][^F2D2A,2][G2D2G,2] | 
[V:1] {/b} .a2.g2.a2.f2 | 
[V:2] {/B} A2G2A2F2 | 
[V:3] C,2[=F2C2A,2][F2C2A,2][F2C2A,2] | 
[V:1] .g2.b2.a2.g2 | 
[V:2] G2B2A2G2 | 
[V:3] C,2[E2C2B,2][E2C2B,2][E2C2B,2] | 
[V:1] .a4.f4 | 
[V:2] A4F4 | 
[V:3] [F4C4A,4F,4][F4C4A,4F,4] | 
[V:1] !accent!a'4.g'2.f'2 | 
[V:2] a4g2f2 | 
[V:3] D,4[F2D2A,2][A2F2D2] | 
[V:1] {/f'} .e'2.d'2.e'2.c'2 | 
[V:2] {/f} e2d2e2c2 | 
[V:3] [A,2A,,2][A2E2C2A,2][A2E2C2A,2][A2E2C2A,2] | 
[V:1] .d'2{/d'e'}.f'z.e'2.d'2 | 
[V:2] .d2{/de}.fz.e2.d2 | 
[V:3] [B,2B,,2][F2D2B,2][F2D2B,2][F2D2B,2] | 
[V:1] !accent!c'4!accent!a4 | 
[V:2] !accent!c4!accent!A4 | 
[V:3] [F,4F,,4][A4F4C4A,4] | 
[V:1] !accent!d'4.c'2.b2 | 
[V:2] !accent!d4.c2.B2 | 
[V:3] [F4D4B,4][^F2D2A,2][F2D2G,2] | 
[V:1] {/ab} .a2.g2.a2.f2 | 
[V:2] {/AB} .A2.G2.A2.F2 | 
[V:3] C,2[=F2C2A,2][F2C2A,2][F2C2A,2] | 
[V:1] .g2.b2.a2.g2 | 
[V:2] .F2.B2.A2.G2 | 
[V:3] C,2[E2C2B,2][E2C2B,2][E2C2B,2] | 
[V:1] !accent!a4!accent!f4 | 
[V:2] !accent!A4!accent!F4[K:clef=bass] | 
[V:3] [F4C4A,4F,4][F4C4A,4F,4] | 
[V:1] .c2.d2 .e2fg & E4E4 | 
[V:2] [B,2G,2]C2 [B,2G,2]C2 & C,4C,4 | 
[V:3] z8 | 
[V:1] .a2.e2 !accent!f2ed | 
[V:2] [F2A,2F,2]C2 [F2A,2F,2]C2 | 
[V:3] z8 | 
[V:1] .c2.d2 !accent!e2fg & E4E4 | 
[V:2] [B,2G,2]C2 [B,2G,2]C2 & C,4C,4 | 
[V:3] z8 | 
[V:1] .a2 z2!accent![a4g4^c4A4] | 
[V:2] [F2A,2F,2] z2[E,4E,,4] | 
[V:3] z8 | 
[V:1] x4=c'2b2 & !accent![d'4a4f4d4]!accent![g4=c4] | 
[V:2] [D,4D,,4][E,4E,,4] | 
[V:3] z8 | 
[V:1] [a2f2c2][b2d2B2][a2^c2A2][f2d2A2] | 
[V:2] [F,2F,,2].[G,2G,,2].[A,2A,,2].[D2D,2] | 
[V:3] z8 | 
[V:1] g2gf .e2.f2 & [d2G2][d2B2][d2A2][^c2G2] | 
[V:2] B,2G,2A,2A,,2 | 
[V:3] z8 | 
[V:1] [d2F2] z2!accent![d4F4] | 
[V:2] D,2 z2[^G,4=B,,4] | 
[V:3] z8 | 
[V:1] .c2.d2 .e2fg & E4E4 | 
[V:2] [B,2G,2C,2]C2 [B,2G,2C,2]C2 | 
[V:3] z8 | 
[V:1] .a2.e2 f2ed & F4F4 | 
[V:2] [A,2F,2]C2 [A,2F,2]C2 | 
[V:3] z8 | 
[V:1] .c2.d2 e2fg & E4E4 | 
[V:2] [B,2G,2C,2]C2 [B,2G,2C,2]C2 | 
[V:3] z8 | 
[V:1] .a2 z2!accent![a4g4^c4A4] | 
[V:2] [F2C2A,2F,2] z2[E,4E,,4] | 
[V:3] z8 | 
[V:1] x4=c'2b2 & !accent![d'4a4f4d4]!accent![g4=c4] | 
[V:2] [D,4D,,4][E,4E,,4] | 
[V:3] z8 | 
[V:1] .[a2f2c2].[b2d2B2].[a2^c2A2].[f2d2A2] | 
[V:2] [F,2F,,2].[G,2G,,2].[A,2A,,2].[D2D,2] | 
[V:3] z8 | 
[V:1] .g2gf .e2.f2 & [d2G2]!accent![d2-B2][d2A2][^c2G2] | 
[V:2] B,2G,2A,2A,,2 | 
[V:3] z8 | 
[V:1] !accent![d4F4].[d2F2] !accent!a2 | 
[V:2] [A,4D,4][D2A,2D,2][K:clef=treble] A2 | 
[V:3] z8 | 
[V:1] .a'.^g'.=g'.^f' .=f'.e'.d'.f' | 
[V:2] .a.^g.=g.^f .=f.e.d.f | 
[V:3] [K:clef=treble][A4F4D4].[A2F2D2].[A2F2D2] | 
[V:1] e'^d'=d'^c' !trill!=c'=bc'a | 
[V:2] .e.^d.=d.^c =c=BcA | 
[V:3] .[A2E2C2A,2].[A2E2C2A,2].[A2E2C2A,2].[A2E2C2A,2] | 
[V:1] .d'.^c'.=c'.=b !mordent!_babf' | 
[V:2] .d.^c.=c.=B _BABf | 
[V:3] .[F2D2B,2].[F2D2B,2].[F2D2B,2].[F2D2B,2][K:clef=bass] | 
[V:1] .c'=b_ba ^ga=gf | 
[V:2] .c=B_BA ^GA=GF | 
[V:3] [F4C4A,4F,4][F4C4A,4F,4] | 
[V:1] ba^g=g ^f=fea | 
[V:2] BA^G=G ^F=FEA | 
[V:3] [E4D4B,4G,4][E2D2A,2][E2^C2A,2] | 
[V:1] ^g=g^f=f egfe | 
[V:2] ^G=G^F=F EGFD | 
[V:3] D,2.[F2D2A,2].[F2D2A,2][F2D2A,2] | 
[V:1] ^cecd =BeBc | 
[V:2] ^CECD =B,EB,C | 
[V:3] .[E2^C2A,2E,2].[E2C2A,2E,2] .[E2D2^G,2E,2].[E2D2G,2E,2] | 
[V:1] !accent!A^ce^g !accent!Ace^g | 
[V:2] A,^CE^G A^ce^g | 
[V:3] [E4^C4A,4].A,,4 | 
[V:1] .a.^g.=g.^f .=f.e.d.f | 
[V:2] .a.^g.=g.^f .=f.e.d.f | 
[V:3] .D,,4[K:clef=treble].[A2F2D2].[A2F2D2] | 
[V:1] .e'.^d'.=d'.^c' !mordent!=c'=bc'a | 
[V:2] .e.^d.=d.^c =c=BcA | 
[V:3] .[A2E2C2A,2].[A2E2C2A,2].[A2E2C2A,2].[A2E2C2A,2] | 
[V:1] .d'/z/.^c'.=c'.=b !mordent!_babf' | 
[V:2] .d/z/.^c.=c.=B _BABf | 
[V:3] [F2D2B,2][F2D2B,2][F2D2B,2][F2D2B,2][K:clef=bass] | 
[V:1] c'.=b._b.a .^g.a.=g.f | 
[V:2] c=B_BA .^G.A.=G.F | 
[V:3] [F4C4A,4F,4][F4C4A,4F,4] | 
[V:1] ba^g=g ^f=fea | 
[V:2] BA^G=G ^F=FEA | 
[V:3] [E4D4=B,4G,4].[E2^C2A,2].[E2^C2A,2] | 
[V:1] ^gfd=B ^GFD=B, | 
[V:2] ^GFD=B,[K:clef=bass] ^G,F,D,=B,, | 
[V:3] [^G4F4D4=B,4]z4 | 
[V:1] _B,^CEG B^ceg | 
[V:2] _B,,^C,E,G, B,^CEG | 
[V:3] z8 | 
[V:1] fdBF DB,F,D, | 
[V:2] FDB,F, D,B,,F,,D,, | 
[V:3] z8 | 
[V:1] [f2B2F2] z2!accent![f4B4D4] | 
[V:2] B,,2 z2x4 & B,,,2 z2[B,4F,4B,,4] | 
[V:3] z8 | 
[V:1] f4-f2de & !accent![B4D4][B4D4] | 
[V:2] [B,4F,4B,,4][B,4F,4B,,4] | 
[V:3] z8 | 
[V:1] .f2de .f2de & !accent![B4D4]!accent![B4D4] | 
[V:2] [B,4F,4B,,4][B,4F,4B,,4] | 
[V:3] z8 | 
[V:1] [f2d2B2].[g2d2G2].[b2g2d2B2].[a2e2^c2G2] | 
[V:2] [B,2B,,2] [B,,2B,,,2][G,,2G,,,2][A,,2A,,,2] | 
[V:3] z8 | 
[V:1] [d4A4F4]x4 & F,D,A,A FDAa | 
[V:2] D,,8 & D,,2A,,2F,2A,,2 | 
[V:3] z8 | 
[V:1] fdaa' f'd'a'e'' | 
[V:2] D,,8 & D,,2A,,2F,2A,,2 | 
[V:3] z8 | 
[V:1] !accent!d''f'd'a' !accent!f'afd' | 
[V:2] D,,8 & D,,2A,,2F,2A,,2 | 
[V:3] z8 | 
[V:1] !accent!adAf !accent!dADA | 
[V:2] D,,8 & D,,2A,,2F,2A,,2 | 
[V:3] z8 | 
[V:1] ^CEA^c2< !accent!=B2e & x4=BEDe | 
[V:2] .A,,2[A,2E,2] .E,,2[^G,2E,2] | 
[V:3] z8 | 
[V:1] !accent!A2>^c2 !accent!=B3e & A^CE^c =BEDe | 
[V:2] .A,,2[A,2E,2] .E,,2[^G,2E,2] | 
[V:3] z8 | 
[V:1] ^CEA^c .e!trill!BAG | 
[V:2] .A,,2[A,2E,2] ^C,2[E2A,2] | 
[V:3] z8 | 
[V:1] FAED ^C_B,A,G, | 
[V:2] .D,2[A,2F,2] .A,,2E,2 | 
[V:3] z8 | 
[V:1] F,D,A,A FDAa | 
[V:2] D,,8 & D,,2A,,2F,2A,,2 | 
[V:3] z8 | 
[V:1] fdaa' f'd'a'a'' | 
[V:2] D,,8 & D,,2A,,2F,2A,,2 | 
[V:3] z8 | 
[V:1] .d''f'd'a .f'afd | 
[V:2] D,,8 & D,,2A,,2F,2A,,2 | 
[V:3] z8 | 
[V:1] .adAF .dFDA, | 
[V:2] D,,8 & D,,2A,,2F,2A,,2 | 
[V:3] z8 | 
[V:1] ^CEAe2< !accent!=B2e & x4=BDEe | 
[V:2] .A,,2[A,2E,2] .E,,2[^G,2E,2] | 
[V:3] z8 | 
[V:1] !accent!A^C^ce =BDEe | 
[V:2] .A,,2[A,2E,2] .E,,2[^G,2E,2] | 
[V:3] z8 | 
[V:1] ^CEA^c .e!trill!_BAG | 
[V:2] .A,,2[A,2E,2] .^C,2[E2A,2=G,2] | 
[V:3] z8 | 
[V:1] FAdf ^gad'a' | 
[V:2] .D,2[D2A,2F,2] .^C,2[G2E2A,2] | 
[V:3] z8 | 
[V:1] .[f'2d'2] a'2d''2 x2 & x2 f'e' !accent!d'f'a'a | 
[V:2] D,2A,2F2 z2 | 
[V:3] z8 | 
[V:1] a'2c'z/=b/a4 & c'e'az/e/ cecA | 
[V:2] A,,2E,2C2 z2 | 
[V:3] z8 | 
[V:1] .F2 f'2b'2 x2 & x2 d'c' bd'f'f | 
[V:2] _B,,2F,2D2 z2 | 
[V:3] z8 | 
[V:1] f'2az/g/f4 & ac'fz/c/ AcAF | 
[V:2] F,,2C,2A,2 z2 | 
[V:3] z8 | 
[V:1] e2 x2 ^f2ga & GB^de x =d3 | 
[V:2] .[G,2G,,2][D2-B,2G,2] [D2A,2].A,,2 | 
[V:3] z8 | 
[V:1] g2^fg a2bc' & x d2 x x d3 | 
[V:2] B,,2[D2B,2] [D2A,2^F,2]^F,,2 | 
[V:3] z8 | 
[V:1] b2ab ^c'2d'e' & x2< g2 x a3 | 
[V:2] .G,,2[D2B,2G,2] .G,2[E2A,2] | 
[V:3] z8 | 
[V:1] d'2^c'd' e'2d'e' & x2< a2 x a3 | 
[V:2] F,2[D2A,2] ^C,2[E2A,2] | 
[V:3] z8 | 
[V:1] [f'd'][e'a][d'f][c'a] [bg][ad][gB][fd] | 
[V:2] .D,4.G,,2.[D2B,2G,2] | 
[V:3] z8 | 
[V:1] [ec][dG][cE][BG] [AF][GC][FA,][EC] | 
[V:2] .C,2[C2G,2] .F,,2F,2 | 
[V:3] z8 | 
[V:1] .D2.D2 .D2B2 | 
[V:2] B,F,^F,C B,G,DE & B,,2A,,2 G,,2G,2 | 
[V:3] z8 | 
[V:1] A2>A2 a2 x2 & FDFA ^ceaa' | 
[V:2] A,8 & A,4A,,4 | 
[V:3] z8 | 
[V:1] ^g'3f'3d'2 & f'^a=b[f'd'] =g^g[d'b]f | 
[V:2] [=B,8^G,8F,8D,8=B,,8] | 
[V:3] z8 | 
[V:1] =g'3e'3c'2 & e'a_b^c' ^fgbe | 
[V:2] !accent![^C8_B,8G,8E,8^C,8] | 
[V:3] z8 | 
[V:1] f'3d'3b2 & d'g^g=b ef[bg]d | 
[V:2] !accent![D8=B,8^G,8F,8D,8] | 
[V:3] z8 | 
[V:1] ^d'3c'2xa2 & c'f^f[c'a] =d'^d'[a^f]A- | 
[V:2] !accent![C8-A,8-^F,8^D,8] | 
[V:3] z8 | 
[V:1] .[a4e4c4A4][^g4e4d4^G4] | 
[V:2] [C2A,2E,2] !accent!^G,,A,, ^A,,=B,,^A,=B, | 
[V:3] z8 | 
[V:1] [=g4e4A4][f4d4A4] | 
[V:2] ^B,^C^B,,^C, E,D,CD | 
[V:3] z8 | 
[V:1] [e4=B4^G4][^d4B4A4] | 
[V:2] E2 ^D,,E,, ^E,,^F,,^E,^F, | 
[V:3] z8 | 
[V:1] [=d4=B4E4][c4-A4E4] | 
[V:2] ^^F,^G,^^F,,^G,, =B,,A,,=B,A, | 
[V:3] z8 | 
[V:1] c4!accent!_B4- & F8 | 
[V:2] D,2D,,D, F,B,CD | 
[V:3] z8 | 
[V:1] B4A4 & _G8 | 
[V:2] _E2C_G, _E,C,A,,_E,, | 
[V:3] z8 | 
[V:1] c4!accent!B4- & F8 | 
[V:2] D,,D,_E,=E, F,B,CD | 
[V:3] z8 | 
[V:1] B4A4- & ^F8 | 
[V:2] ^DCA,^F, ^D,C,A,,^D,, | 
[V:3] z8 | 
[V:1] A2 z2z4 & [E2C2] x2x4 | 
[V:2] .E,,2 E^D FEA,=B, | 
[V:3] z8 | 
[V:1] !accent![e4c4A4E4]!accent![a4e4c4A4] | 
[V:2] DCE,^G, =B,A,C,D, | 
[V:3] z8 | 
[V:1] !accent![c'4a4e4c4]!accent![e'4c'4a4e4] | 
[V:2] F,E,A,,=B,, !accent!D,C,A,,F,, | 
[V:3] z8 | 
[V:1] [a'4e'4c'4a4][^g'4e'4d'4=b4] | 
[V:2] E,,F,,C,,D,, E,,D,,C,,=B,,, | 
[V:3] z8 | 
[V:1] x2 a'g' f'2e'd' & .[a'2e'2c'2a2] ^c'e' d'a^g=b | 
[V:2] A,,,2[K:clef=treble] Aa dfeE | 
[V:3] z8 | 
[V:1] ^c'2 ag f2ed & ae^ce dA^G=B | 
[V:2] .A2 AA,[K:clef=bass] DFEE, | 
[V:3] z8 | 
[V:1] ^c2 A=G F2ED[K:clef=bass] & AE!accent!^CE DA,^G,=B, | 
[V:2] .A,2 A,,A, D,F,E,E,, | 
[V:3] z8 | 
[V:1] .^C2 A,=G, F,2E,D, & A,E,!accent!^C,E, D,A,,^G,,=B,, | 
[V:2] .A,,2 A,,A,,, D,,F,,E,,E,,, & x2 x2 x2 E,,2 | 
[V:3] z8 | 
[V:1] G4[K:clef=treble]d'2^c'2 & [^C,4A,,4]z4 | 
[V:2] E4D2^C2 & A,,,4z4 | 
[V:3] z8 | 
[V:1] {/d'} ^c'2=b2c'2e2 & z8 | 
[V:2] {/D} ^C2=B,2C2E,2 & z8 | 
[V:3] z8 | 
[V:1] a8- & ^c4=B2A2 | 
[V:2] A,8- | 
[V:3] z8 | 
[V:1] !fermata!a8 & A8 | 
[V:2] [^C8A,8] | 
[V:3] z8 | 
[V:1] [A4F4][G2E2][F2D2] | 
[V:2] [A,4D,4][A,2D,2][A,2D,2] | 
[V:3] z8 | 
[V:1] {/[FD]} E2D2E4 & ^C2=B,2C2A,2 | 
[V:2] [A,2A,,2][A,2A,,2][A,2A,,2][A,2A,,2] | 
[V:3] z8 | 
[V:1] [F2D2][A2F2][G2E2][F2D2] | 
[V:2] [A,2D,2][A,2D,2][A,2D,2][A,2D,2] | 
[V:3] z8 | 
[V:1] [E8^C8] | 
[V:2] [A,8A,,8] | 
[V:3] z8 | 
[V:1] [E8^C8] | 
[V:2] [A,8A,,8] | 
[V:3] z8 | 
[V:1] [E8^C8] | 
[V:2] [G,8G,,8] | 
[V:3] z8 | 
[V:1] ^G,^C^GG ^c^gg^c' | 
[V:2] ^G,,E,^G,G,[K:clef=treble] E^GGe | 
[V:3] z8 | 
[V:1] ^g'^b^gg ^B^GG^B, | 
[V:2] ^g^d^GG[K:clef=bass] ^D^G,G,^D, | 
[V:3] z8 | 
[V:1] ^G,^C^GG ^c^gg^c' | 
[V:2] ^G,,^E,^G,G,[K:clef=treble] E^GGe | 
[V:3] z8 | 
[V:1] ^g'^b^gg ^B^GG^B, | 
[V:2] ^g^d^GG[K:clef=bass] ^D^G,G,^D, | 
[V:3] z8 | 
[V:1] ^G,^B,^GG ^B^gg^b | 
[V:2] ^G,,^D,^G,G,[K:clef=treble] ^D^GG^d | 
[V:3] z8 | 
[V:1] ^g'^b^gg ^B^GG^B, | 
[V:2] ^g^d^GG[K:clef=bass] ^D^G,G,^D, | 
[V:3] z8 | 
[V:1] =G,=CGG cggc' | 
[V:2] ^G,,_E,G,G,[K:clef=treble] _EGG_e | 
[V:3] z8 | 
[V:1] g'=bgg =BGG=B, | 
[V:2] gdGG[K:clef=bass] DG,G,D, | 
[V:3] z8 | 
[V:1] G,CGG cggc' | 
[V:2] G,,_E,G,G,[K:clef=treble] _EGG_e | 
[V:3] z8 | 
[V:1] g'=bgg =BGG=B, | 
[V:2] gdGG[K:clef=bass] DG,G,D, | 
[V:3] z8 | 
[V:1] G,CGG cggc' | 
[V:2] G,,_E,G,G,[K:clef=treble] _EGG_e | 
[V:3] z8 | 
[V:1] g'^c'gg ^cGG^C | 
[V:2] g=eGG[K:clef=bass] =EG,G,E, | 
[V:3] z8 | 
[V:1] G,DGG dggd' | 
[V:2] G,,F,G,G,[K:clef=treble] FGGg | 
[V:3] z8 | 
[V:1] g'=bgg =BGGD | 
[V:2] gdGG[K:clef=bass] DG,G,D, | 
[V:3] z8 | 
[V:1] G,CGG cggc' | 
[V:2] G,,E,G,G,[K:clef=treble] EGGe | 
[V:3] z8 | 
[V:1] g'=c'gg =BGG=B, | 
[V:2] gdGG[K:clef=bass] DG,G,D, | 
[V:3] z8 | 
[V:1] G,CGG cggc' | 
[V:2] G,,E,G,G,[K:clef=treble] EGGe | 
[V:3] z8 | 
[V:1] g'=bgg =BGG=B, | 
[V:2] gdGG[K:clef=bass] DG,G,D, | 
[V:3] z8 | 
[V:1] G,CEG cegc' | 
[V:2] [C,4C,,4]z4[K:clef=treble] | 
[V:3] z8 | 
[V:1] _a_d'f_d _AdF_D | 
[V:2] _A_dF_D[K:clef=bass] _A,_DF,_D, | 
[V:3] z8 | 
[V:1] =A=d^FA d^fad' | 
[V:2] =A,=D^F,A,[K:clef=treble] D^FAd | 
[V:3] z8 | 
[V:1] _b_e'gb _e'g'b'_e'' | 
[V:2] _B_eGB eg_b_e' | 
[V:3] z8 | 
[V:1] =e''b'g'c' e'bgc | 
[V:2] =e'bge eBGC[K:clef=bass] | 
[V:3] z8 | 
[V:1] eBGC EB,G,C, | 
[V:2] EB,G,C, E,B,,G,,C,, | 
[V:3] z8 | 
[V:1] F,C_A,C Fc_Ac | 
[V:2] F,,C,_A,,C, F,C_A,C[K:clef=treble] | 
[V:3] z8 | 
[V:1] fc'_ac' f'c''_a'f' | 
[V:2] Fc_Ac fc'_af | 
[V:3] z8 | 
[V:1] g'c''e'c' gc'ec | 
[V:2] gc'ec GcEC | 
[V:3] z8 | 
[V:1] _a_d'f_d _A_dF_D | 
[V:2] _A_dF_D[K:clef=bass] _A,_DF,_D, | 
[V:3] z8 | 
[V:1] =A=d^FA d^fad' | 
[V:2] =A,=D^F,A,[K:clef=treble] D^FAd | 
[V:3] z8 | 
[V:1] _b_e'g_e _BG_EB, | 
[V:2] _B_eG_E[K:clef=bass] B,G,_E,B,, | 
[V:3] z8 | 
[V:1] =EC,G,B, ECGB | 
[V:2] =E,C,,G,,B,, E,C,G,B,[K:clef=treble] | 
[V:3] z8 | 
[V:1] ecgb e'c'g'c'' | 
[V:2] ECGB ecgc' | 
[V:3] z8 | 
[V:1] _a'c''f'c' _ac'fc | 
[V:2] _ac'fc _AcFC[K:clef=bass] | 
[V:3] z8 | 
[V:1] _AcFC _A,CA,C, | 
[V:2] _A,CF,C, _A,,C,F,,C,, | 
[V:3] z8 | 
[V:1] CG,CF =EGcf | 
[V:2] [C,8C,,8]- | 
[V:3] z8 | 
[V:1] egc'f' e'g'c''f'' | 
[V:2] [C,8C,,8]- | 
[V:3] z8 | 
[V:1] e''f'_b'e'' d''b'f'e' | 
[V:2] [C,8C,,8]- | 
[V:3] z8 | 
[V:1] d'bfe dBFE | 
[V:2] [C,8C,,8]- | 
[V:3] z8 | 
[V:1] DE,A,D CEAd | 
[V:2] [C,8C,,8]- | 
[V:3] z8 | 
[V:1] cead' c'e'a'd'' | 
[V:2] [C,8C,,8]- | 
[V:3] z8 | 
[V:1] c''d'g'c'' b'g'd'c' | 
[V:2] [C,8C,,8]- | 
[V:3] z8 | 
[V:1] bgdc BGDC | 
[V:2] [C,8C,,8] | 
[V:3] z8 | 
[V:1] B,C,F,B, A,CFB | 
[V:2] C,,8- | 
[V:3] z8 | 
[V:1] AB,DA GBda | 
[V:2] [C,8C,,8]- | 
[V:3] z8 | 
[V:1] gAcg fac'g' | 
[V:2] [C,8C,,8]- | 
[V:3] z8 | 
[V:1] f'gbf' e'bgf | 
[V:2] !accent![C,8C,,8]- | 
[V:3] z8 | 
[V:1] eFAe dfae' | 
[V:2] !accent![C,8D,,8] | 
[V:3] z8 | 
[V:1] d'egd' c'ged | 
[V:2] [C,8-C,,8] | 
[V:3] z8 | 
[V:1] cCFc Bdfc' | 
[V:2] [C,8C,,8-] | 
[V:3] z8 | 
[V:1] becB ECB,E, | 
[V:2] [C,8-C,,8] | 
[V:3] z8 | 
[V:1] F2!accent![F4A,4F,4][F2A,2F,2]- | 
[V:2] [A,4F,4]x4 & [C,4F,,4][C,4F,,4] | 
[V:3] z8 | 
[V:1] [F2A,2F,2]!accent![F4A,4F,4][F2A,2F,2] | 
[V:2] [C,4F,,4][C,4F,,4][K:clef=treble] | 
[V:3] z8 | 
[V:1] z8 | 
[V:2] F,2[A2C2] .F,2[A2C2] | 
[V:3] z8 | 
[V:1] z8 | 
[V:2] .F,2[A2C2] .F,2[A2C2] | 
[V:3] z8 | 
[V:1] .f2ab .c'2!accent!f'd' | 
[V:2] F,2[A2C2] .F,2[A2C2] | 
[V:3] z8 | 
[V:1] .c'2!accent!f'd' c'e'f'd' | 
[V:2] .F,2[A2C2] .F,2[A2C2] | 
[V:3] z8 | 
[V:1] .c'2!accent!d'c' .b2.g2 | 
[V:2] .F,2[B2C2] F,2[B2C2] | 
[V:3] z8 | 
[V:1] .f2!accent!a6 | 
[V:2] F,2[A2C2] F,2[A2C2][K:clef=bass] | 
[V:3] z8 | 
[V:1] .g2(3aeg .f2.d2 | 
[V:2] .G,,2G,2[F2=B,2]G,2 | 
[V:3] z8 | 
[V:1] .c2!accent!G4ce | 
[V:2] .C,2G,2[E2C2]G,2 | 
[V:3] z8 | 
[V:1] .g2(3!accent!=bag !mordent!f2ed | 
[V:2] .G,,2G,2[F2=B,2]G,2 | 
[V:3] z8 | 
[V:1] .c2!accent!c'4ga | 
[V:2] .C,2G,2[E2_B,2]C2 | 
[V:3] z8 | 
[V:1] .f2ab =bc'f'd' | 
[V:2] F,2[K:clef=treble][A2C2] F,2[A2C2] | 
[V:3] z8 | 
[V:1] .c'2 (3f''f'd' (3c'd'c' (3f''f'd' | 
[V:2] F,2[A2C2] F,2[A2C2] | 
[V:3] z8 | 
[V:1] (3c'e'_b (3=b_e'a (3_bd'^c' (3=c'bg | 
[V:2] F,2[B2C2] F,2[B2C2] | 
[V:3] z8 | 
[V:1] .f2!accent!a6 | 
[V:2] F,2[A2C2] F,2[A2C2][K:clef=bass] | 
[V:3] z8 | 
[V:1] !trill!g^fg2 {/g} .=bz/a/=fd | 
[V:2] .G,,2G,2[F2=B,2]G,2 | 
[V:3] z8 | 
[V:1] .c2!accent!G4ce | 
[V:2] .C,2G,2[E2C2]G,2 | 
[V:3] z8 | 
[V:1] .g2 (3a'g'f' (3d'=ba (3gfd | 
[V:2] .G,,2G,2[F2=B,2]G,2 | 
[V:3] z8 | 
[V:1] .c2!accent!c'4a_b | 
[V:2] .C,2[E2C2G,2] .D,2[^F2D2A,2] | 
[V:3] z8 | 
[V:1] .g2bc' .d'2g'e' | 
[V:2] G,,2D2[K:clef=treble] .G,2[B2D2] | 
[V:3] z8 | 
[V:1] (3d'_e'^c' (3d'g'e' (3d'e'd' (3b'g'e' | 
[V:2] G,2[B2D2] G,2[B2D2] | 
[V:3] z8 | 
[V:1] (3d'^f'=c' (3^c'=f'=b (3=c'=e'_e' (3d'c'a | 
[V:2] G,2[c2D2] G,2[c2D2] | 
[V:3] z8 | 
[V:1] .g2!accent!b6 | 
[V:2] G,2[B2D2] G,2[B2D2] | 
[V:3] z8 | 
[V:1] .g2 !accent!b2.g2 (3ac'b | 
[V:2] G,2[B2D2] F,2[B2_D2] | 
[V:3] z8 | 
[V:1] .g2 (3bd''c'' (3b'g'e' (3c'ag | 
[V:2] =E,2C2c2B2 | 
[V:3] z8 | 
[V:1] .f2 (3ad''c'' (3a'f'd' (3c'gf | 
[V:2] F,2C2A2[F2A,2][K:clef=bass] | 
[V:3] z8 | 
[V:1] .g2 {/c-}[c'6c6] | 
[V:2] !arpeggio![E6G,6C,6]z2 | 
[V:3] z8 | 
[V:1] z> [c''g']f'>[a'd'] c'>[f'b]a3/[c'/g/] | 
[V:2] .[C,2F,,2]{/F,G,}A,2 .[C,2F,,2]{/F,G,}A,2 | 
[V:3] z8 | 
[V:1] f>[ad]c>[fA]!accent!F4 | 
[V:2] .[C,2F,,2]{/F,G,}A,2 .[C,2F,,2]{/F,G,}A,2 | 
[V:3] z8 | 
[V:1] z> [c''f']e'>[g'd'] c'>[e'b]a3/[c'/g/] | 
[V:2] .[C,2F,,2]{/G,A,}B,2 .[C,2F,,2]{/G,A,}B,2 | 
[V:3] z8 | 
[V:1] f>[ad]c>[fA]!accent!F4 | 
[V:2] [C,2F,,2]{/F,G,}A,2 .[C,2F,,2]{/F,G,}A,2 | 
[V:3] z8 | 
[V:1] z> [c''f']e'>[g'd'] c'>[e'b]a3/[c'/g/] | 
[V:2] .[C,2F,,2]{/G,A,}B,2 .[C,2F,,2]{/G,A,}B,2 | 
[V:3] z8 | 
[V:1] f>[ad]c>[fA]F4 | 
[V:2] [C,2F,,2]{/F,G,}A,2 [C,2F,,2]{/F,G,}A,2 | 
[V:3] z8 | 
[V:1] .[f4d4A4F4].!arpeggio![f2_d2B2F2].!arpeggio![_g2_d2_G2] | 
[V:2] [D4A,4F,4D,4]!arpeggio![_D2B,2F,2_D,2]!arpeggio![B,2_G,2_D,2B,,2] | 
[V:3] z8 | 
[V:1] x4x2 c'_b & .!arpeggio![=g2=d2=G2F2].!arpeggio![^g2e2=B2^G2] [a2e2A2]!arpeggio![e2_B2] | 
[V:2] !arpeggio![=B,2=G,2=D,2B,,2]!arpeggio![B,2^G,2E,2D,2] !arpeggio![^C2A,2E,2^C,2]!arpeggio![=C2_B,2G,2=C,2] | 
[V:3] z8 | 
[V:1] [a2f2A2] .[_af].[f'd'] .[ge].[e'^c'] .[^f_e].[_e'=c'] | 
[V:2] [C2A,2F,2][K:clef=treble] d=B ._B2 =c=A | 
[V:3] z8 | 
[V:1] .[=fd].[d'=b] .[=e^c].[^c'_b] .[_e=c].[=c'a] .[d=B].[=b_a] | 
[V:2] .^G2 _B=G ^F^D_A=F | 
[V:3] z8 | 
[V:1] .[_d_B].[_bg] .[cA].[a^f] .[=B^G].[^g=f] .[_B=G].[=ge] | 
[V:2] E_D^F^D =D=B,E^C[K:clef=bass] | 
[V:3] z8 | 
[V:1] [f2d2B2F2] !arpeggio![f2d2A2F2] !arpeggio![f2d2B2F2] !arpeggio![g2e2c2B2G2] | 
[V:2] D2 !arpeggio![D2A,2F,2D,2] !arpeggio![D2B,2F,2D,2] !arpeggio![C2G,2E,2C,2] | 
[V:3] z8 | 
[V:1] !arpeggio![a2f2c2A2] [aA][gG] [f2F2][g2G2] | 
[V:2] !arpeggio![F,2C,2A,,2F,,2] [A,A,,][G,G,,] .[F,2F,,2].[G,2G,,2] | 
[V:3] z8 | 
[V:1] !accent![c4C4].[c2C2] [fF][gG] | 
[V:2] [C,4C,,4][C,2C,,2] [F,F,,][G,G,,] | 
[V:3] z8 | 
[V:1] .[a2A2][gG][aA] .[f2F2].[g2G2] | 
[V:2] .[A,2A,,2][G,G,,][A,A,,] .[F,2F,,2].[G,2G,,2] | 
[V:3] z8 | 
[V:1] [c4C4][c'2^f2c2][c'2f2c2] | 
[V:2] [C,4C,,4][D,2D,,2][D,2D,,2] | 
[V:3] z8 | 
[V:1] x2 bax4 & [b2g2B2]!accent![^f2c2][g2d2][a2_e2A2] | 
[V:2] [G,2G,,2][A,2A,,2][B,2B,,2][C2C,2] | 
[V:3] z8 | 
[V:1] !accent![d4A4^F4].d2 ga | 
[V:2] [D4D,4][D2D,2] [B,B,,][A,A,,] | 
[V:3] z8 | 
[V:1] x2 abx4 & [b2g2d2][^f2c2][g2d2][a2_e2A2] | 
[V:2] [G,2G,,2][A,2A,,2][B,2B,,2][C2C,2] | 
[V:3] z8 | 
[V:1] d8- & [A4^F4]z4 | 
[V:2] D8 & D,4z4 | 
[V:3] z8 | 
[V:1] d2e2f2g2 & [d2B2][e2B2]B2B2 | 
[V:2] .B,,2[F2D2B,2][F2D2B,2][F2D2B,2] | 
[V:3] z8 | 
[V:1] {/fg}.[a4A4]!accent![a4A4] | 
[V:2] [F4C4F,4][F4C4F,4] | 
[V:3] z8 | 
[V:1] .[d2B2].[e2B2].[f2B2].[g2B2] | 
[V:2] .B,,2[F2D2B,2][F2D2B,2][F2D2B,2] | 
[V:3] z8 | 
[V:1] {/fg} [a2A2] z2 {/d'}!accent![c'4g4c4] | 
[V:2] [F2C2F,2] z2[E,4E,,4] | 
[V:3] z8 | 
[V:1] !accent![c'4a4c4].[c'2g2c2].[f'2a2f2] | 
[V:2] [F,4F,,4][E,2E,,2][D,2D,,2] | 
[V:3] z8 | 
[V:1] !accent![e'4c'4g4].[f2d2].[c'2f2c2] | 
[V:2] [C,4C,,4][B,,2B,,,2][A,,2A,,,2] | 
[V:3] z8 | 
[V:1] [b2g2d2][afc][gB] .[f2A2].[g2e2c2G2] | 
[V:2] [G,,2G,,,2][A,,A,,,][B,,B,,,] [C,2C,,2][C,2C,,2] | 
[V:3] z8 | 
[V:1] !accent![a4f4c4A4]!accent![g4e4c4G4] | 
[V:2] [F,2F,,2][A,2A,,2][C2C,2][C,2C,,2] | 
[V:3] z8 | 
[V:1] {/d'}!accent![c'4a4c4].[c'2g2c2].[f'2a2f2] | 
[V:2] [F,2F,,2][F2F,2][E2E,2][D2D,2] | 
[V:3] z8 | 
[V:1] !accent![e'4c'4g4].[f2d2].[c'2f2c2] | 
[V:2] [C2C,2] [C,2C,,2][B,,2B,,,2][A,,2A,,,2] | 
[V:3] z8 | 
[V:1] {/c'} [b2g2d2][a2f2c2][g2d2][a2e2B2] | 
[V:2] [G,,2G,,,2][A,,2A,,,2][B,,2B,,,2][C,2C,,2] | 
[V:3] z8 | 
[V:1] !accent![f4A4].[f2A2] A,B, | 
[V:2] [F,4F,,4][F,2F,,2] A,,B,, | 
[V:3] z8 | 
[V:1] C2A,B, C2FD | 
[V:2] C,2A,,B,, C,2F,D, | 
[V:3] z8 | 
[V:1] C2FD C2 [g2e2c2G2] | 
[V:2] C,2F,D, C,2 [C,2C,,2] | 
[V:3] z8 | 
[V:1] [a2f2c2A2] A,B, C2FD | 
[V:2] [F,,2F,,,2] A,,B,, C,2F,D, | 
[V:3] z8 | 
[V:1] C2FD C2[G2E2C2] | 
[V:2] C,2F,D, C,2 [C,2C,,2] | 
[V:3] z8 | 
[V:1] z4D,F,D^G, | 
[V:2] [=B,,8=B,,,8]- | 
[V:3] z8 | 
[V:1] DFd^G dfd'^g | 
[V:2] [=B,,4=B,,,4][_B,,4_B,,,4] | 
[V:3] z8 | 
[V:1] ad'fd AdFD | 
[V:2] [A,,8A,,,8] | 
[V:3] z8 | 
[V:1] !accent!BdFD B,DF,D, | 
[V:2] [_A,,8_A,,,8] | 
[V:3] z8 | 
[V:1] =B,,D,DF, =B,DdF | 
[V:2] [G,,8G,,,8]- | 
[V:3] z8 | 
[V:1] =Bdd'f =bd'd''f' | 
[V:2] [G,,8G,,,8]- | 
[V:3] z8 | 
[V:1] !accent!=b'd''f'd' !accent!=bd'fd | 
[V:2] [G,,8G,,,8]- | 
[V:3] z8 | 
[V:1] =BdFD B^dGF | 
[V:2] [G,,8G,,,8] | 
[V:3] z8 | 
[V:1] !accent!!arpeggio![e2c2G2E2] z2 E,G,GC | 
[V:2] [C,8C,,8]- | 
[V:3] z8 | 
[V:1] EGgc egg'c' | 
[V:2] [C,4C,,4][=B,,4=B,,,4] | 
[V:3] z8 | 
[V:1] d'g'c'g egcG | 
[V:2] [_B,,8_B,,,8] | 
[V:3] z8 | 
[V:1] !accent!eg^cG EG^CG, | 
[V:2] [A,,8A,,,8] | 
[V:3] z8 | 
[V:1] F,_A,_A_D FA_a_d | 
[V:2] [_A,,8_A,,,8]- | 
[V:3] z8 | 
[V:1] f_a_a'_d' f'a'd'a | 
[V:2] [A,,8A,,,8]- | 
[V:3] z8 | 
[V:1] _e'_a'_d'_a _ea_d_A | 
[V:2] [A,,8A,,,8]- | 
[V:3] z8 | 
[V:1] !accent!_E_A_D_A, !accent!EACA, | 
[V:2] [A,,8A,,,8] | 
[V:3] z8 | 
[V:1] .!accent![_A2F2_D2_A,2] z2 F,_A,AD | 
[V:2] [_D,8_D,,8]- | 
[V:3] z8 | 
[V:1] F_A_a_d f_a_a'c' | 
[V:2] [D,4D,,4][C,4C,,4] | 
[V:3] z8 | 
[V:1] f'_a'_d'_a fa_d_A | 
[V:2] [_C,8_C,,8] | 
[V:3] z8 | 
[V:1] f_a=d_A F^GD^G, | 
[V:2] [B,,8B,,,8] | 
[V:3] z8 | 
[V:1] F,A,AD FAad | 
[V:2] [A,,8A,,,8]- | 
[V:3] z8 | 
[V:1] faa'd' f'a'd'a | 
[V:2] [A,,8A,,,8]- | 
[V:3] z8 | 
[V:1] e'a'd'a eadA | 
[V:2] [A,,8A,,,8]- | 
[V:3] z8 | 
[V:1] EADA, EA^CA, | 
[V:2] [A,,8A,,,8] | 
[V:3] z8 | 
[V:1] F,A,AD FAad | 
[V:2] [D,8D,,8]- | 
[V:3] z8 | 
[V:1] faa'd' f'a'd'a | 
[V:2] [D,8D,,8] | 
[V:3] z8 | 
[V:1] c'a'f'a fc'ac | 
[V:2] [F,8F,,8]- | 
[V:3] z8 | 
[V:1] AfcF CAFA, | 
[V:2] [F,8F,,8] | 
[V:3] z8 | 
[V:1] E,G,GC EGgc | 
[V:2] [C,8C,,8]- | 
[V:3] z8 | 
[V:1] egg'c' e'g'c'g | 
[V:2] [C,8C,,8] | 
[V:3] z8 | 
[V:1] _bg'_e'g _ebgB | 
[V:2] [_E,8_E,,8]- | 
[V:3] z8 | 
[V:1] G_eB_E B,GEG, | 
[V:2] [E,8E,,8] | 
[V:3] z8 | 
[V:1] D,F,FB, DFfB | 
[V:2] [B,,8B,,,8]- | 
[V:3] z8 | 
[V:1] dff'b d'f'bf | 
[V:2] [B,,8B,,,8] | 
[V:3] z8 | 
[V:1] _af'_d'f _daf_A | 
[V:2] [_D,8_D,,8]- | 
[V:3] z8 | 
[V:1] F_d_A_D _A,FDF, | 
[V:2] [D,8D,,8] | 
[V:3] z8 | 
[V:1] =A,!accent!F_DF !accent!=Af_df | 
[V:2] [_D,8_D,,8] | 
[V:3] z8 | 
[V:1] !accent!=af'_d'f' !accent!a'f''_d''f'' | 
[V:2] [_D8_D,8][K:clef=treble] | 
[V:3] z8 | 
[V:1] b'f'_d'f' bf_df | 
[V:2] !accent![_d4_D4]z4[K:clef=bass] | 
[V:3] z8 | 
[V:1] BF_DF !accent!=B,_A,G,F, | 
[V:2] z4[_D,4_D,,4] | 
[V:3] z8 | 
[V:1] [C2=E,2] G,C AGca | 
[V:2] [C,2C,,2] z2[E,4E,,4]- | 
[V:3] z8 | 
[V:1] gcGA GA,=B,F | 
[V:2] [E,4E,,4][D,4D,,4]- | 
[V:3] z8 | 
[V:1] E,=B,FE Afe=b | 
[V:2] [D,4D,,4][C,2C,,2][=B,,2=B,,,2] | 
[V:3] z8 | 
[V:1] f'e'ae feAE | 
[V:2] [C,8C,,8] | 
[V:3] z8 | 
[V:1] edAD EDA,D, | 
[V:2] [=B,,4=B,,,4][C,2C,,2][B,,2B,,,2] | 
[V:3] z8 | 
[V:1] =B,ED=B ed=be' | 
[V:2] [^G,,4^G,,,4][E,,4E,,,4] | 
[V:3] z8 | 
[V:1] ad'c'e' a'd''c''a' | 
[V:2] [A,,4A,,,4][C,2C,,2][D,2D,,2] | 
[V:3] z8 | 
[V:1] e'd'c'a edcA | 
[V:2] .[E,4E,,4]!accent![A,4A,,4]- | 
[V:3] z8 | 
[V:1] =B,^Fc=B ec'=be' | 
[V:2] [A,4A,,4][G,2G,,2][^F,2^F,,2] | 
[V:3] z8 | 
[V:1] c''=b'e'=b c'=be=B | 
[V:2] !accent![G,8G,,8]- | 
[V:3] z8 | 
[V:1] Ae=ba e'=b'a'e' | 
[V:2] [G,4G,,4][^F,2^F,,2][^E,2^E,,2] | 
[V:3] z8 | 
[V:1] a=bae A=BAE | 
[V:2] !accent![^F,8^F,,8]- | 
[V:3] z8 | 
[V:1] A,^D=BA ^d=ba^d' | 
[V:2] [F,4F,,4][G,2G,,2][^F,2^F,,2] | 
[V:3] z8 | 
[V:1] =b'a'^f'a =ba^fA | 
[V:2] [^D,4^D,,4][=B,,4=B,,,4] | 
[V:3] z8 | 
[V:1] eag=b e'a'g'e' | 
[V:2] [E,4E,,4][G,2G,,2][A,2A,,2] | 
[V:3] z8 | 
[V:1] =bage =BAGE | 
[V:2] .[=B,4=B,,4].[E4E,4] | 
[V:3] z8 | 
[V:1] Gcag c'a'g'g | 
[V:2] !accent!!arpeggio![C8G,8E,8] | 
[V:3] z8 | 
[V:1] =bg'f'b ggfB | 
[V:2] !arpeggio![D8G,8D,8] | 
[V:3] z8 | 
[V:1] cfeg c'f'e'g | 
[V:2] !arpeggio![E8G,8C,8] | 
[V:3] z8 | 
[V:1] ^ge'd'g eedE | 
[V:2] !accent![E,8D,8=B,,8] | 
[V:3] z8 | 
[V:1] Adce ad'c'a | 
[V:2] [A,8E,8-C,8A,,8-] | 
[V:3] z8 | 
[V:1] edcA EDCA, | 
[V:2] .[C4E,4A,,4]z4 | 
[V:3] z8 | 
[V:1] E,D,C,A,, E,, z z2 | 
[V:2] x4z C,,D,,E,, | 
[V:3] z8 | 
[V:1] A,,C,E,A, CEAc | 
[V:2] A,,,C,,E,,A,, C,E,A,C[K:clef=treble] | 
[V:3] z8 | 
[V:1] cfac' f'd''c''c' | 
[V:2] !accent![A8F8C8A,8] | 
[V:3] z8 | 
[V:1] e'c''b'e' c'c'bc | 
[V:2] !accent![G8E8C8G,8][K:clef=bass] | 
[V:3] z8 | 
[V:1] fbac' f'b'a'c' | 
[V:2] !accent![F8C8A,8F,8] | 
[V:3] z8 | 
[V:1] ^c'a'g'c' aagc | 
[V:2] !accent![E8^C8G,8E,8] | 
[V:3] z8 | 
[V:1] dgfa d'g'f'd' | 
[V:2] !accent![D8A,8-F,8D,8-] | 
[V:3] z8 | 
[V:1] agfd AGFD | 
[V:2] .[F4A,4D,4]z4 | 
[V:3] z8 | 
[V:1] A,G,F,D, .A,, z z2 | 
[V:2] z4z F,,G,,A,, | 
[V:3] z8 | 
[V:1] D,F,A,D FAdf | 
[V:2] D,,F,,A,,D, F,A,DF | 
[V:3] z8 | 
[V:1] FBdf bg'd'f | 
[V:2] !arpeggio![D8B,8F,8D,8] | 
[V:3] z8 | 
[V:1] af'_e'a ff_eF | 
[V:2] !arpeggio![C8A,8_E,8C,8] | 
[V:3] z8 | 
[V:1] B_edf b_e'd'f | 
[V:2] !arpeggio![B,8F,8D,8B,,8] | 
[V:3] z8 | 
[V:1] ^fd'c'f ddcD | 
[V:2] !arpeggio![A,8^F,8C,8A,,8] | 
[V:3] z8 | 
[V:1] GcBd gc'bd' | 
[V:2] !arpeggio![G,8D,8-B,,8G,,8-] | 
[V:3] z8 | 
[V:1] g'c''b'g' d'c'bg | 
[V:2] [B,4D,4G,,4]z4 | 
[V:3] z8 | 
[V:1] dcBG DCB,G, | 
[V:2] z8 | 
[V:3] z8 | 
[V:1] D,C,B,,A,, G,,^C,A,G, | 
[V:2] z4_E,,,4 | 
[V:3] z8 | 
[V:1] A,,D,G,^F, !accent!A,DG^F | 
[V:2] D,,,8 | 
[V:3] z8 | 
[V:1] !accent!A,^CAG !accent!A^cag | 
[V:2] [_E,8_E,,8] | 
[V:3] z8 | 
[V:1] ^fdA^F DA,^F,D, | 
[V:2] [D,8D,,8] | 
[V:3] z8 | 
[V:1] !accent!A,,^C,A,G, !accent!A,^CAG | 
[V:2] _E,,,8 | 
[V:3] z8 | 
[V:1] A,DG^F !accent!Fdg^f | 
[V:2] D,,,4z4 | 
[V:3] z8 | 
[V:1] A^cag !accent!a^c'a'g' | 
[V:2] [_E8_E,8] | 
[V:3] z8 | 
[V:1] ^f'd'a^f dA^FD | 
[V:2] [D8D,8] | 
[V:3] z8 | 
[V:1] !accent!A,^CAG A^cag | 
[V:2] [_E,8_E,,8] | 
[V:3] z8 | 
[V:1] !accent!Adg^f !accent!ad'g'^f' | 
[V:2] [D,8D,,8]- | 
[V:3] z8 | 
[V:1] d'ag^f dAG^F | 
[V:2] [D,8D,,8]- | 
[V:3] z8 | 
[V:1] DA,G,^F, D,A,, z2 | 
[V:2] [D,4D,,4]z2 .G,,.^F,, | 
[V:3] z8 | 
[V:1] [g4G4][^f4^F4] | 
[V:2] D,,8 | 
[V:3] z8 | 
[V:1] [d6D6]z2 | 
[V:2] G,4^F,4 & z8 | 
[V:3] z8 | 
[V:1] z8 | 
[V:2] D,,4x4 & G,,,4^F,,,4 | 
[V:3] z8 | 
[V:1] z8 | 
[V:2] ^F,,,4x4 & D,,,8- | 
[V:3] z8 | 
[V:1] z4!fermata!z4 ||  
[V:2] D,,,4!fermata!z4 ||  
[V:3] z8 ||  
[V:1] [d4B4][c2A2][B2G2] & D8 | 
[V:2] G,,4G,,2B,,2 | 
[V:3] z8 | 
[V:1] [A2^F2][G2E2]A4 & x4F2D2 | 
[V:2] D,8 | 
[V:3] z8 | 
[V:1] [B2G2][d2B2][c2A2][B2G2] & D8 | 
[V:2] G,,8 | 
[V:3] z8 | 
[V:1] [A8^F8D8] | 
[V:2] D,8[K:clef=treble] | 
[V:3] z8 | 
[V:1] b'4a'2g'2 | 
[V:2] B4A2G2 | 
[V:3] G,,4[D2B,2G,2][D2B,2G,2] | 
[V:1] {/g'} f'2e'2f'2d'2 | 
[V:2] {/G} F2E2F2D2 | 
[V:3] .B,,2[D2A,2F,2][D2B,2F,2][D2B,2F,2] | 
[V:1] _e'2g'2f'2e'2 | 
[V:2] _E2G2F2E2 | 
[V:3] _E,2[K:clef=treble] [B2G2_E2B,2][B2G2E2B,2][B2G2E2B,2][K:clef=bass] | 
[V:1] d'4b4 | 
[V:2] D4B,4 | 
[V:3] B,,4[K:clef=treble][B4F4D4B,4][K:clef=bass] | 
[V:1] g'4f'2_e'2 | 
[V:2] G4F2_E2 | 
[V:3] !accent![B,4G,4_E,4][=B,2G,2F,2D,2][C2G,2_E,2C,2] | 
[V:1] {/_e'} d'2c'2d'2b2 | 
[V:2] {/_E} D2C2D2B,2 | 
[V:3] .F,,2 .[F2D2B,2F,2].[F2D2B,2F,2].[F2D2B,2F,2] | 
[V:1] c'2_e'2d'2c'2 | 
[V:2] C2_E2D2C2 | 
[V:3] .F,,2 .[F2_E2A,2].[F2E2A,2].[F2E2A,2] | 
[V:1] d'4b4 | 
[V:2] D4B,4 | 
[V:3] B,,4[F4D4B,4F,4] | 
[V:1] d''4c''2b'2 | 
[V:2] d4c2B2 | 
[V:3] G,,4.[D2B,2G,2].[G2D2B,2] | 
[V:1] {/a'b'} a'2g'2a'2f'2 | 
[V:2] {/AB} A2G2A2F2 | 
[V:3] .D,2.[F2D2A,2].[F2D2A,2].[F2D2A,2] | 
[V:1] g'2.b'2.a'2.g'2 | 
[V:2] G2B2.A2.G2 | 
[V:3] _E,,2 [B,2G,2][B,2G,2][_E2B,2G,2] | 
[V:1] !accent!f'4!accent!d'4 | 
[V:2] !accent!F4!accent!D4 | 
[V:3] B,,4[D4B,4F,4] | 
[V:1] g'4f'2_e'2 | 
[V:2] G4F2_E2 | 
[V:3] [B,4G,4_E,4][=B,2G,2F,2D,2][C2G,2_E,2C,2] | 
[V:1] {/_e'} d'2c'2d'2b2 | 
[V:2] {/_E} D2C2D2B,2 | 
[V:3] F,,2 [F2D2B,2F,2][F2D2B,2F,2][F2D2B,2F,2] | 
[V:1] c'2._e'2.d'2.c'2 | 
[V:2] C2_E2D2C2 | 
[V:3] F,,2 .[F2_E2A,2].[F2E2A,2].[F2E2A,2] | 
[V:1] !accent!d'4!accent!b4 | 
[V:2] !accent!D4!accent!B,4[K:clef=bass] | 
[V:3] B,,4[F4D4B,4] | 
[V:1] [f2F2][g2G2] [a2A2][bB][c'c] | 
[V:2] .F,,2F,2[_E2C2]F,2 | 
[V:3] z8 | 
[V:1] .[d'2d2][a2A2] [b2B2][aA][gG] | 
[V:2] .B,,2F,2!accent![F2D2B,2]F,2 | 
[V:3] z8 | 
[V:1] .[f2F2].[g2G2] [a2A2][bB][c'c] | 
[V:2] .F,,2F,2!accent![F2_E2C2]F,2 | 
[V:3] z8 | 
[V:1] .[d'2d2] z2!accent![d'4c'4^f4d4] | 
[V:2] [F2D2B,2] z2[A,,4A,,,4] | 
[V:3] z8 | 
[V:1] x4f'2_e'2 & !accent![g'4b4g4][c'4f4] | 
[V:2] [G,,4G,,,4][A,,4A,,,4] | 
[V:3] z8 | 
[V:1] [d'2b2f2].[_e'2g2_e2].[d'2^f2].[b2g2d2] | 
[V:2] [B,,2B,,,2].[C,2C,,2].[D,2D,,2].[G,2G,,2] | 
[V:3] z8 | 
[V:1] x2 c'bx4 & [c'2g2c2]!accent![g2_e2].[a2g2d2]!accent![b2^f2c2] | 
[V:2] [_E,2_E,,2][C,2C,,2][D,2D,,2] [D2D,2] | 
[V:3] z8 | 
[V:1] [g2B2]z2!accent![g4B4] | 
[V:2] [D2G,2] z2[_D4=E,4] | 
[V:3] z8 | 
[V:1] .[f2_e2A2].[g2G2] !accent![a2A2][bB][c'c] | 
[V:2] F,,2F,2!accent![F2_E2C2]F,2 | 
[V:3] z8 | 
[V:1] .[d'2d2][a2A2] !accent![b2B2][aA][gG] | 
[V:2] .B,,2F,2!accent![F2D2B,2]F,2 | 
[V:3] z8 | 
[V:1] .[f2F2].[g2G2] !accent![a2A2][bB][c'c] | 
[V:2] F,,2F,2[F2_E2C2]F,2 | 
[V:3] z8 | 
[V:1] [d'2d2] z2!accent![d'4c'4^f4d4] | 
[V:2] [F2D2B,2] z2[A,,4A,,,4] | 
[V:3] z8 | 
[V:1] x4f'2_e'2 & !accent![g'4b4g4]!accent![c'4f4] | 
[V:2] [G,,4G,,,4][A,,4A,,,4] | 
[V:3] z8 | 
[V:1] .[d'2b2f2].[_e'2g2_e2].[d'2^f2].[b2g2d2] | 
[V:2] [B,,2B,,,2][C,2C,,2][D,2D,,2][G,2G,,2] | 
[V:3] z8 | 
[V:1] c'2c'bx4 & [g2c2]!accent![g2_e2] [a2g2d2]!accent![b2^f2c2] | 
[V:2] [_E,2_E,,2][C,2C,,2][D,2D,,2][D2D,2] | 
[V:3] z8 | 
[V:1] [g4B4][g2B2] d2 | 
[V:2] [D4G,4][D2G,2][K:clef=treble] D2 | 
[V:3] z8 | 
[V:1] .d'.^c'.=c'.=b ._b.a.g.b | 
[V:2] .d.^c.=c.=B ._B.A.G.B | 
[V:3] [G,4G,,4][D2B,2G,2][D2B,2G,2] | 
[V:1] a^g=g^f {/g} =fefd | 
[V:2] .A.^G.=G.^F {/G} .=FEFD | 
[V:3] .D,2[F2D2A,2][F2D2A,2][F2D2A,2] | 
[V:1] g.^f.=f.e !mordent!_ede_b | 
[V:2] .G.^F.=F.E _EDE_B | 
[V:3] _E,,2 .[B,2G,2].[B,2G,2].[_E2B,2G,2] | 
[V:1] f.=e._e.d .^c.d.=c._B | 
[V:2] .F.=E._E.D .^C.D.=C._B,[K:clef=bass] | 
[V:3] .B,,4[D4B,4F,4] | 
[V:1] _e'd'^c'=c' =b_bad' | 
[V:2] _ED^C=C =B,_B,A,D | 
[V:3] [A,4G,4C,4].[A,2^F,2D,2].[D2F,2D,2] | 
[V:1] ^c'=c'=b_b ac'bg | 
[V:2] ^C=C=B,_B, A,CB,G, | 
[V:3] .G,,2.[D2B,2G,2].[D2B,2G,2].[D2B,2G,2] | 
[V:1] !accent!^fafg !accent!eaef | 
[V:2] ^F,A,F,G, E,A,E,F, | 
[V:3] .A,,2[D2A,2^F,2] .A,,2[^C2A,2G,2] | 
[V:1] !accent!d^fa^c' !accent!d'^f'a'^c'' | 
[V:2] !accent!D,^F,A,^C[K:clef=treble] !accent!D^FA^c | 
[V:3] [D4A,4^F,4D,4][D4A,4F,4D,4] | 
[V:1] !wedge!d''.^c''.=c''.=b' ._b'.a'.g'b' | 
[V:2] !wedge!d.^c.=c.=B ._B.A.G.B | 
[V:3] G,,4.[D2B,2G,2].[D2B,2G,2] | 
[V:1] .a.^g.=g.^f !mordent!=fefd | 
[V:2] .A.^G.=G.^F .=F.E.F.D | 
[V:3] .D,2.[F2D2A,2].[F2D2A,2].[F2D2A,2] | 
[V:1] .g/z/.^f.=f.e !mordent!_ede_b | 
[V:2] .G/z/.^F.=F.E ._EDE_B | 
[V:3] _E,,2 [B,2G,2][B,2G,2].[_E2B,2G,2] | 
[V:1] .f'=e'_e'd' ^c'd'=c'_b | 
[V:2] .F=E_ED ^CD=C_B, | 
[V:3] B,,4[D4B,4F,4] | 
[V:1] _e'd'^c'=c' =b_bad' | 
[V:2] _ED^C=C[K:clef=bass] =B,_B,A,D | 
[V:3] [A,4G,4C,4][A,2^F,2D,2][D2A,2F,2] | 
[V:1] ^c'bge ^cBGE | 
[V:2] ^CB,G,E, ^C,B,,G,,E,, | 
[V:3] !arpeggio![E4^C4B,4=E,4]z4 | 
[V:1] !accent!_E^FAc _e^fac' | 
[V:2] _E,,^F,,A,,C, _E,^F,A,C | 
[V:3] z8 | 
[V:1] !accent!_b^f!accent!gd !accent!_eA!accent!BG | 
[V:2] _B,^F,G,D, _E,A,,B,,G,, | 
[V:3] z8 | 
[V:1] ._E2 z2[b4_e4B4]- | 
[V:2] _E,,2 z2!accent![G4B,4_E,4] | 
[V:3] z8 | 
[V:1] b4b2ga & [e4B4][_e4B4] | 
[V:2] !accent![G4B,4_E,4]!accent![G4B,4E,4] | 
[V:3] z8 | 
[V:1] b2ga .b2ga & [_e4B4][e4B4] | 
[V:2] [G4B,4_E,4][G4B,4E,4] | 
[V:3] z8 | 
[V:1] .[b2_e2B2].[c'2g2c2].[_e'2g2e2].[d'2^f2d2c2] | 
[V:2] [G2B,2_E,2][_E2E,2][C2C,2][D2D,2] | 
[V:3] z8 | 
[V:1] d8 & BcAB GABc | 
[V:2] G,,4x4 & !accent!G,,2D,2B,2D,2 | 
[V:3] z8 | 
[V:1] g4z4 & d_e^cd =e^fga | 
[V:2] B,,4x4 & !accent!B,,2D,2D2D,2 | 
[V:3] z8 | 
[V:1] d'8 & bab^f gabc' | 
[V:2] G,,4x4 & !accent!G,,2D,2B,2D,2 | 
[V:3] z8 | 
[V:1] g'4z4 & d'_e'^c'd' =e'f'g'a' | 
[V:2] B,,4x4 & !accent!B,,2D,2D2D,2 | 
[V:3] z8 | 
[V:1] ^c''4c''2 x2 & _b'a'b'^f' b'g'^d'e' | 
[V:2] G,,4x4 & G,,2E,2B,2E,2 | 
[V:3] z8 | 
[V:1] b'2 x2 g'2 x2 & g'e'c'^c' e'c'ab | 
[V:2] ^C,4x4 & ^C,2B,2E2B,2 | 
[V:3] z8 | 
[V:1] e'2 x2 ^c'2 x2 & ^c'b^fg bg^de | 
[V:2] G,,4x4 & G,,2E,2B,2E,2 | 
[V:3] z8 | 
[V:1] b2 x2 g2 x2 & ge=c^c ecBG | 
[V:2] ^C,4x4 & !accent!^C,2B,2E2B,2 | 
[V:3] z8 | 
[V:1] d8 & AB^GA =B^cde | 
[V:2] ^F,,4x4 & !accent!^F,,2D,2A,2D,2 | 
[V:3] z8 | 
[V:1] a4z4 & ^f^ef^c d=efg | 
[V:2] A,,4x4 & A,,2D,2D2D,2 | 
[V:3] z8 | 
[V:1] !accent!d'8 & ab^ga =b^c'd'e' | 
[V:2] =F,,4x4 & =F,,2D,2A,2D,2 | 
[V:3] z8 | 
[V:1] a'4z4 & f'e'f'^c' d'e'f'g' | 
[V:2] A,,4x4 & !accent!A,,2D,2D2D,2 | 
[V:3] z8 | 
[V:1] _d''2 x2 d''2 x2 & !accent!_a'g'a'e' !accent!a'f'c'_d' | 
[V:2] F,,4x4 & !accent!F,,2_D,2_A,2D,2 | 
[V:3] z8 | 
[V:1] _a2 x2 f2 x2 & !accent!f_dG_A !accent!dAEF | 
[V:2] _A,,4x4 & !accent!_A,,2_D,2_D2D,2 | 
[V:3] z8 | 
[V:1] _d'2 x2 a2 x2 & !accent!_afc_d !accent!fdG_A | 
[V:2] F,,4x4 & !accent!F,,2_D,2_A,2D,2 | 
[V:3] z8 | 
[V:1] f2 x2 _d2 x2 & !accent!_d_A=EF !accent!AF_E_D | 
[V:2] _A,,4x4 & !accent!_A,,2_D,2_D2D,2 | 
[V:3] z8 | 
[V:1] !accent!G8 & =EFDE CDEF | 
[V:2] =E,,4x4 & !accent!=E,,2C,2G,2C,2 | 
[V:3] z8 | 
[V:1] d4z4 & G_A^FG =A=Bcd | 
[V:2] G,,4x4 & !accent!G,,2C,2C2C,2 | 
[V:3] z8 | 
[V:1] !accent!g8 & _ede=B cdef | 
[V:2] _E,,4x4 & !accent!_E,,2C,2G,2C,2 | 
[V:3] z8 | 
[V:1] c'4z4 & g_a^fg =a=bc'd' | 
[V:2] G,,4x4 & !accent!G,,2C,2C2C,2 | 
[V:3] z8 | 
[V:1] _g'4g'2 x2 & !accent!_e'd'e'=b !accent!e'c'^ga | 
[V:2] _E,,4x4 & !accent!_E,,2C,2A,2C,2 | 
[V:3] z8 | 
[V:1] _e'2 x2 c'2 x2 & !accent!c'af_g !accent!agd_e | 
[V:2] _G,,4x4 & !accent!_G,,2_E,2C2E,2 | 
[V:3] z8 | 
[V:1] =a2 x2 g2 x2 & _g_e=Bc ec^GA | 
[V:2] _E,,4x4 & !accent!_E,,2C,2A,2C,2 | 
[V:3] z8 | 
[V:1] _e6d2 & cAF^F ADdD | 
[V:2] ^F,,4x4 & !accent!^F,,2D,2A,2D,2 | 
[V:3] z8 | 
[V:1] d2 x2 x2 x2 & BGBd !wedge![d'b]gdB | 
[V:2] G,,4x4 & G,,2G,2B,2D2 | 
[V:3] z8 | 
[V:1] _e2 x2 x2 x2 & !accent!cGBe .[_e'b]geB | 
[V:2] .G,,2G,2B,2_E2 | 
[V:3] z8 | 
[V:1] =e2 x2 x2 x2 & BGBe .[=e'b]geB | 
[V:2] .G,,2G,2B,2=E2 | 
[V:3] z8 | 
[V:1] f2 x2 x2 x2 & _ecef .[f'_e']c'fc | 
[V:2] .A,,2F,2C2F2 | 
[V:3] z8 | 
[V:1] f2 x2 x2 x2 & [fd]Bdf .[f'd']bfd | 
[V:2] .B,,2F,2B,2D2 | 
[V:3] z8 | 
[V:1] [fd]G[fd]g !accent![f'd']g!accent![fd]G | 
[V:2] .=B,,2G,2D2F2 | 
[V:3] z8 | 
[V:1] !accent![_ec]G[ec]g !accent![_e'c']g!accent![ec]G | 
[V:2] .C,2G,2C2_E2 | 
[V:3] z8 | 
[V:1] [dc]^F[dc]d .[d'c']^fdf | 
[V:2] .D,2A,2C2D2 | 
[V:3] z8 | 
[V:1] [d'b]gbd' .[d''b']g'd'b | 
[V:2] .G,,2G,2!accent![G2B,2]D2 | 
[V:3] z8 | 
[V:1] _e'2 x2 x2 x2 & !accent!bgbe' .[_e''b']g'e'b | 
[V:2] .G,,2G,2!accent![G2B,2]_E2 | 
[V:3] z8 | 
[V:1] =e'2 x2 x2 x2 & bgbe' .[=e''b']g'e'b | 
[V:2] .G,,2G,2!accent![G2B,2]=E2 | 
[V:3] z8 | 
[V:1] f'2 x2 x2 x2 & !accent!_e'c'e'f' [f''_e'']c''f'c' | 
[V:2] A,,2F,2!accent![F2C2]_E2 | 
[V:3] z8 | 
[V:1] f'2 x2 x2 x2 & !accent!d'bd'f' [d''f'']b'f'd' | 
[V:2] .B,,2F,2!accent![F2B,2]D2 | 
[V:3] z8 | 
[V:1] !accent![f'd']fd'f' !accent![f''d'']g'!accent![f'd']g | 
[V:2] .=B,,2G,2[K:clef=treble] !accent![d2F2]G2[K:clef=bass] | 
[V:3] z8 | 
[V:1] !accent![_e'c']g[e'c']e' !accent![_e''c'']g'!accent![e'c']g | 
[V:2] C,2G,2[K:clef=treble] !accent![c2_E2]G2[K:clef=bass] | 
[V:3] z8 | 
[V:1] a2 x2 a'2 x2 & !accent!_ecea _e'c'aa' | 
[V:2] .F,,2.F,2[K:clef=treble] ._E2.c2 | 
[V:3] z8 | 
[V:1] [b'd']g'f'd' bgfd | 
[V:2] [B2D2B,2] z2z4[K:clef=bass] | 
[V:3] z8 | 
[V:1] BGFD B,G,F,D, | 
[V:2] z8 | 
[V:3] z8 | 
[V:1] z2 d'c'f'2 d''c'' & x2 !accent!a2b2 !accent!a'2 | 
[V:2] [K:clef=bass].B,,,2[K:clef=treble] f_e.d2 !accent!f'_e' | 
[V:3] z8 | 
[V:1] .f''2 x2 x2 dc & b'2 z2 z2 !accent!A2 | 
[V:2] .d'2 z2 z2 !accent!F_E | 
[V:3] z8 | 
[V:1] f2 d'c'.f'2 dc & B2 !accent!a2b2 !accent!A2 | 
[V:2] .D2 !accent!f_e.d2 !accent!F_E | 
[V:3] z8 | 
[V:1] .f2 DC.F2 !accent!dc & B2 !accent!A,2B,2 !accent!A2 | 
[V:2] .D2[K:clef=bass] !accent!F,_E,.D,2 !accent!F_E | 
[V:3] z8 | 
[V:1] .f2 d'c'.f'2 c'=b & B2 !accent!a2b2 !accent!^g2 | 
[V:2] D2[K:clef=treble] !accent!f_e.d2 !accent!=ed | 
[V:3] z8 | 
[V:1] .e'2 _c'_b._e'2 b_a & a2 !accent!g2a2 !accent!f2 | 
[V:2] .^c2 !accent!_e_d.=c2 !accent!d_c | 
[V:3] z8 | 
[V:1] _g2 x2 _d'_g_g'_e' & ._d'_db_c'x4 | 
[V:2] _B2 z2[K:clef=bass] _D,2[_G2B,2][K:clef=treble] | 
[V:3] z8 | 
[V:1] _d'_g_g'_e' d'gg'e' | 
[V:2] [B2_D2][_G2B,2] [B2D2] z2[K:clef=bass] | 
[V:3] z8 | 
[V:1] _d'ff'_e' d'f_b_a | 
[V:2] _D,2[F2A,2][K:clef=treble] .[_A2C2].[_F2_A,2] | 
[V:3] z8 | 
[V:1] _g_dg_a _b_gb_c' | 
[V:2] ._G,2.[_G2B,2].[B2_D2] z2[K:clef=bass] | 
[V:3] z8 | 
[V:1] _d'ff'_e' d'fba | 
[V:2] ._D,2[K:clef=treble] [F2A,2][A2_C2][F2A,2] | 
[V:3] z8 | 
[V:1] _g_db_c' ._d'_e_e'd' | 
[V:2] ._G,2.[_G2_D2B,2] .=G,2.[=G2_E2B,2] | 
[V:3] z8 | 
[V:1] .c'_e=bc' ._e'ff'e' | 
[V:2] ._A,2.[_A2_E2C2] .=A,2.[=A2F2C2] | 
[V:3] z8 | 
[V:1] .d'f^c'd' .f'^ge'f' | 
[V:2] .B,2.[B2F2D2] .=B,2.[=B2^G2F2D2] | 
[V:3] z8 | 
[V:1] .^g'2 x2 x2 x2 & f'd'f'^a =bf'd'=g | 
[V:2] [d2=B2^G2F2]> ^c2 dDF^A | 
[V:3] z8 | 
[V:1] ^gd'=be fbg^c | 
[V:2] =B=B,D=G ^G^G,B,E[K:clef=bass] | 
[V:3] z8 | 
[V:1] d^gf^A =Afd=G | 
[V:2] FF,^G,^C DD,F,^A, | 
[V:3] z8 | 
[V:1] ^Gd=BE FBGD | 
[V:2] =B,=B,,D,=G, ^G,^G,,B,,F, | 
[V:3] z8 | 
[V:1] [c2A2F2C2] x2 .[c'2a2]f'd' & x2 [af][bg]x2!accent![^g2f2] | 
[V:2] [A,2C,2] z2 [C,2C,,2][=B,,2=B,,,2] | 
[V:3] z8 | 
[V:1] .c'2f'd' .c'2f'd' & !accent!a2[^g2f2] !accent!a2[g2f2] | 
[V:2] [C,2C,,2][=B,,2=B,,,2] [C,2C,,2][B,,2B,,,2] | 
[V:3] z8 | 
[V:1] .[c'2g2e2]!accent![d'ad][c'a] .[b2=g2d2]!accent![c'gc]b | 
[V:2] [C,2C,,2][^F,2^F,,2] [G,2G,,2][E,2E,,2] | 
[V:3] z8 | 
[V:1] .[a2f2c2]!accent![bfB]a [g2f2d2]!accent![aec][gB] | 
[V:2] [F,2F,,2][D,2D,,2] [B,,2B,,,2][C,2C,,2] | 
[V:3] z8 | 
[V:1] !arpeggio![f2c2A2F2] !accent!!trill!c=B !accent!cfga | 
[V:2] !arpeggio![F,2C,2A,,2F,,2][K:clef=treble] A^G ACF,C | 
[V:3] z8 | 
[V:1] cd!trill!c=B cfga | 
[V:2] ABA^G ACF,C | 
[V:3] z8 | 
[V:1] x2 c'2f'4 & .c2 !accent!fg !accent!ab=bc' | 
[V:2] ACF,C ACF,A, | 
[V:3] z8 | 
[V:1] x d'c'2x4 & cd'!accent!fg !accent!a_b=bc' | 
[V:2] ACF,C ACF,C- | 
[V:3] z8 | 
[V:1] !accent![ge]age' [d'f][e'g][d'f][e'g] | 
[V:2] G8- & C2=B,A, G,A,^A,B, | 
[V:3] z8 | 
[V:1] [c'e]ag.g' [f'f][e'g][d'f][e'g] | 
[V:2] G8 & C2=B,A, G,A,^A,B, | 
[V:3] z8 | 
[V:1] c'd'c'd' c'd'c'd' & e2f^g =g^gab | 
[V:2] C2D^D EF^FG & C8 | 
[V:3] z8 | 
[V:1] c'8 & agfe defg | 
[V:2] ABAG =FGAB & C8 | 
[V:3] z8 | 
[V:1] .f2 !accent!!mordent!c=B !accent!cfga | 
[V:2] .[A2F2] A^G ACF,C | 
[V:3] z8 | 
[V:1] cd!mordent!c=B cfga | 
[V:2] A_BA^G ACF,C | 
[V:3] z8 | 
[V:1] x2 c'2f'4 & .c2 !accent!fg ab=bc' | 
[V:2] ACF,C ACF,C | 
[V:3] z8 | 
[V:1] x d'c'2f'4 & cd'!accent!fg !accent!a_b=bc' | 
[V:2] ACF,C ACF,C- | 
[V:3] z8 | 
[V:1] x4g'2f'2 & .[g2e2] [g'e'][a'f'] e'a^a=b | 
[V:2] [G2C2] z2 =Bc^cd & x4G4 | 
[V:3] z8 | 
[V:1] e' x x2 g2f2 & e'g [ge][af] !accent!eA^A=B | 
[V:2] x4[K:clef=bass]_B,C^CD & .[e2c2] z2G,4 | 
[V:3] z8 | 
[V:1] eG [GE][AF] G2F2 & c x x2 !accent!EA,^A,=B, | 
[V:2] .[E2C2] z2G,,4 & x4=B,,C,^C,D, | 
[V:3] z8 | 
[V:1] [EC]G,CE [FD]CEG | 
[V:2] .[E,2C,2] z2 .C,,2 z2 | 
[V:3] z8 | 
[V:1] A2 c2>B2c2- & FCcF2< E2_E | 
[V:2] .F,,2 x2 x G,2F, & x4G,,2A,,2 | 
[V:3] z8 | 
[V:1] ccBc d2cB & D2BA GF=E2 | 
[V:2] B,,2 x2x4 & B,,^F,G,A, _B,=B,CC, | 
[V:3] z8 | 
[V:1] AB2<c2 dc2- & F2>!accent!F2 E3_E | 
[V:2] x2 x2 x G,2F, & x4G,,2A,,2 | 
[V:3] z8 | 
[V:1] ccBc d2cB & D2BA GF=E2 | 
[V:2] B,,2 x2x4 & B,,^F,G,A, B,=B,CC, | 
[V:3] z8 | 
[V:1] AB2<c2 Bc2- & F2>!accent!F2 E3_E | 
[V:2] x2 x2 x G,2^F, & x4G,,2A,,2 | 
[V:3] z8 | 
[V:1] cB2<!accent!d2 ^cd2- & D2>G2 ^F3=F | 
[V:2] F,G,2B,2A,2^G,- & B,,2G,,2A,,2=B,,2 | 
[V:3] z8 | 
[V:1] dc2<e2 ^de2 & E2>A2 ^G3=G | 
[V:2] G,A,2!accent!C2=B,2_B,- & C,2A,,2=B,,2^C,2 | 
[V:3] z8 | 
[V:1] x ef2 g2fg & .F2 z B2B3- | 
[V:2] B,A,2B,x4 & D,2_D,2 ^C,ECE | 
[V:3] z8 | 
[V:1] a2 c'2>b2c'2- & BA!accent!c'f2< e2_e | 
[V:2] x x x x2< G2F[K:clef=treble] & F,FF,A G,2A,2 | 
[V:3] z8 | 
[V:1] c'c'bc' d'2c'b & d2ba gf!accent!e2 | 
[V:2] B,^FGA B=BcC & B,2 x2x4 | 
[V:3] z8 | 
[V:1] ab2<c'2 d'c'2- & f2>!accent!f2 e3_e | 
[V:2] FGAF, x G2F- & x4G,2A,2 | 
[V:3] z8 | 
[V:1] c'c'bc' d'2c'b & d2ba gf!accent!e2 | 
[V:2] F^FGA B=BcC & B,2 x2x4 | 
[V:3] z8 | 
[V:1] ab2<c'2 bc'2- & f2>f2 e3_e | 
[V:2] FGAF, x G2^F- & x4G,2A,2 | 
[V:3] z8 | 
[V:1] c'b2<d'2 ^c'd'2- & d2>!accent!g2 ^f3=f | 
[V:2] FG2B2A2^G- & B,2G,2A,2_B,2 | 
[V:3] z8 | 
[V:1] d'c'2<e'2 ^d'e'2 & e2>!accent!a2 ^g3=g | 
[V:2] GA2c2=B2_B- & C2A,2=B,2^C2 | 
[V:3] z8 | 
[V:1] x e'f'2 g'2f'g' & f2 z !accent!b2b3 | 
[V:2] BA2Bx4 & D2_D2 Cece | 
[V:3] z8 | 
[V:1] !accent!a'a^gf' e'g_d'c' | 
[V:2] Ff=Bd _B_dGe | 
[V:3] z8 | 
[V:1] !accent!a'a^gf' e'=g_d'c' | 
[V:2] Ff=B=d _B_dGe | 
[V:3] z8 | 
[V:1] !accent!a'a^gf' e'g^f_e' | 
[V:2] Ff=Bd _B_dAc | 
[V:3] z8 | 
[V:1] d'=f=g^g acBg | 
[V:2] =Bd=B,F CFCE[K:clef=bass] | 
[V:3] z8 | 
[V:1] aA^Gf e=G_dc | 
[V:2] F,F=B,D _B,_DG,E | 
[V:3] z8 | 
[V:1] !accent!aA^Gf e=G_dc | 
[V:2] F,F=B,D _B,_DG,E | 
[V:3] z8 | 
[V:1] aA^Gf e=G^F_e | 
[V:2] F,F=B,D _B,_DA,C | 
[V:3] z8 | 
[V:1] x4A3=G & d=FG^G !accent!ACB,=G | 
[V:2] =B,D=B,,F, C,F,C,E, | 
[V:3] z8 | 
[V:1] FA,FG AFAB | 
[V:2] F,,C,A,B, CF,CD | 
[V:3] z8 | 
[V:1] cFdc AFGA | 
[V:2] _EF,FE CF,B,C | 
[V:3] z8 | 
[V:1] BFBc dBba | 
[V:2] DF,D_E[K:clef=treble] FF,FB | 
[V:3] z8 | 
[V:1] geba geag | 
[V:2] _dFBc dFcB | 
[V:3] z8 | 
[V:1] fcfg afab | 
[V:2] AFAB cFcd | 
[V:3] z8 | 
[V:1] c'fd'c' afga | 
[V:2] _eFfe cFBc | 
[V:3] z8 | 
[V:1] bfbc' d'bb'a' | 
[V:2] dFd_e fFfb | 
[V:3] z8 | 
[V:1] g'e'b'a' g'e'a'g' | 
[V:2] _d'fbc' d'fc'b | 
[V:3] z8 | 
[V:1] f'c'a'b' c''f'f''d'' | 
[V:2] aFcg acfb | 
[V:3] z8 | 
[V:1] c''ff''d'' c''f'f''d'' | 
[V:2] acfb acfb | 
[V:3] z8 | 
[V:1] c''f'f''d'' c''f'f''d'' | 
[V:2] acfb acfb | 
[V:3] z8 | 
[V:1] c''f'f''d'' c''f'f''d'' | 
[V:2] acfb acfb | 
[V:3] z8 | 
[V:1] c''f'd''c'' a'f'b'a' | 
[V:2] a2 ba fcgf | 
[V:3] z8 | 
[V:1] f'c'g'f' c'ad'c' | 
[V:2] cABA FCBA | 
[V:3] z8 | 
[V:1] afba fcgf | 
[V:2] FCGF[K:clef=bass] CA,B,A, | 
[V:3] z8 | 
[V:1] cAdc AFBA | 
[V:2] F,C,B,A, F,C,G,F, | 
[V:3] z8 | 
[V:1] f4a2b2 & FCcC FCcC | 
[V:2] .F,,2 A,C, F,,C,A,C, | 
[V:3] z8 | 
[V:1] c'8- & FCcC FCcC | 
[V:2] F,,C,A,C, F,,C,A,C, | 
[V:3] z8 | 
[V:1] c'4d'4 & FCcC FCcC | 
[V:2] F,,C,A,C, F,,C,A,C, | 
[V:3] z8 | 
[V:1] c'4f4 & FCcC FCcC | 
[V:2] F,,C,A,C, F,,C,A,C, | 
[V:3] z8 | 
[V:1] a8 & .F2 f'd' c'afd | 
[V:2] .F,,2[K:clef=treble] fd cAFD[K:clef=bass] | 
[V:3] z8 | 
[V:1] cAFD CA,F,C, | 
[V:2] CA,F,D, C,A,,F,,C,, | 
[V:3] z8 | 
[V:1] !wedge!F,,4z4 |]  
[V:2] F,,,4z4 |]  
[V:3] z8 |]
